( Generated by Carbide Copper )
( Material Size )
( X= 75.000, Y= 40.000, Z= 1.580 )
()
G17
G21
G54
G90
M05
(  )
T501 M06
( Contour )
M03 S10000
G0  X4.632 Y38.325
G0  Z3.000
G01 F400 Z0
G01 F400 Z-0.100
G01F400X4.555 Y38.308
X4.482 Y38.276
X4.421 Y38.231
X2.984 Y36.794
X2.938 Y36.743
X2.898 Y36.674
X2.873 Y36.599
X2.866 Y36.526
X2.866 Y30.631
X2.873 Y30.559
X2.898 Y30.484
X2.938 Y30.415
X2.984 Y30.364
X4.421 Y28.927
X4.482 Y28.882
X4.555 Y28.850
X4.632 Y28.833
X5.360 Y28.833
X5.832 Y28.142
X5.584 Y28.032
X5.334 Y27.851
X5.128 Y27.621
X4.973 Y27.354
X4.878 Y27.060
X4.846 Y26.759
X4.846 Y24.041
X4.878 Y23.740
X4.973 Y23.447
X5.128 Y23.179
X5.334 Y22.950
X5.584 Y22.768
X5.866 Y22.643
X6.168 Y22.578
X6.477 Y22.578
X6.779 Y22.643
X7.062 Y22.768
X7.311 Y22.950
X7.518 Y23.179
X7.672 Y23.447
X7.768 Y23.740
X7.799 Y24.041
X7.799 Y26.759
X7.768 Y27.060
X7.672 Y27.354
X7.518 Y27.621
X7.311 Y27.851
X7.062 Y28.032
X6.785 Y28.155
X6.688 Y28.187
X6.669 Y28.247
X6.633 Y28.308
X5.864 Y29.436
X5.814 Y29.492
X5.750 Y29.538
X5.678 Y29.570
X5.600 Y29.587
X4.829 Y29.587
X3.622 Y30.794
X3.622 Y36.364
X4.829 Y37.571
X6.864 Y37.571
X6.192 Y37.428
X5.562 Y37.148
X5.004 Y36.742
X4.542 Y36.230
X4.197 Y35.632
X3.984 Y34.976
X3.912 Y34.290
X3.984 Y33.604
X4.197 Y32.948
X4.542 Y32.350
X5.004 Y31.838
X5.562 Y31.432
X6.192 Y31.152
X6.867 Y31.008
X7.557 Y31.008
X8.232 Y31.152
X8.862 Y31.432
X9.420 Y31.838
X9.881 Y32.350
X10.226 Y32.948
X10.440 Y33.604
X10.472 Y33.913
X12.116 Y33.913
X11.741 Y33.276
X12.093 Y31.913
X13.306 Y31.199
X14.532 Y31.516
X18.264 Y27.784
X18.264 Y24.123
X18.271 Y24.051
X18.284 Y24.013
X18.284 Y17.774
X18.291 Y17.701
X18.316 Y17.626
X18.355 Y17.557
X18.402 Y17.506
X21.928 Y13.980
X20.940 Y12.991
X20.916 Y12.986
X20.751 Y12.913
X20.605 Y12.807
X20.485 Y12.673
X20.395 Y12.517
X20.339 Y12.346
X20.321 Y12.173
X20.321 Y10.687
X20.339 Y10.514
X20.395 Y10.343
X20.485 Y10.187
X20.605 Y10.053
X20.751 Y9.947
X20.916 Y9.874
X21.092 Y9.837
X21.272 Y9.837
X21.448 Y9.874
X21.613 Y9.947
X21.758 Y10.053
X21.879 Y10.187
X21.969 Y10.343
X22.024 Y10.514
X22.043 Y10.687
X22.043 Y12.173
X22.024 Y12.346
X21.969 Y12.517
X21.879 Y12.673
X21.789 Y12.773
X22.609 Y13.593
X27.374 Y13.593
X28.195 Y12.773
X28.105 Y12.673
X28.015 Y12.517
X27.959 Y12.346
X27.941 Y12.173
X27.941 Y10.687
X27.959 Y10.514
X28.015 Y10.343
X28.105 Y10.187
X28.225 Y10.053
X28.371 Y9.947
X28.536 Y9.874
X28.712 Y9.837
X28.892 Y9.837
X29.068 Y9.874
X29.233 Y9.947
X29.378 Y10.053
X29.499 Y10.187
X29.589 Y10.343
X29.644 Y10.514
X29.663 Y10.687
X29.663 Y12.173
X29.644 Y12.346
X29.589 Y12.517
X29.499 Y12.673
X29.409 Y12.773
X30.229 Y13.593
X40.074 Y13.593
X41.945 Y11.722
X41.849 Y11.560
X42.028 Y10.869
X42.029 Y10.868
X40.411 Y8.525
X40.051 Y8.389
X40.051 Y8.465
X40.031 Y8.658
X39.968 Y8.850
X39.868 Y9.024
X39.733 Y9.174
X39.570 Y9.292
X39.386 Y9.374
X39.190 Y9.416
X38.988 Y9.416
X38.791 Y9.374
X38.607 Y9.292
X38.444 Y9.174
X38.310 Y9.024
X38.209 Y8.850
X38.147 Y8.658
X38.127 Y8.465
X38.127 Y6.775
X38.147 Y6.582
X38.209 Y6.390
X38.310 Y6.216
X38.444 Y6.066
X38.607 Y5.948
X38.791 Y5.866
X38.988 Y5.824
X39.190 Y5.824
X39.386 Y5.866
X39.570 Y5.948
X39.733 Y6.066
X39.868 Y6.216
X39.968 Y6.390
X40.031 Y6.582
X40.051 Y6.775
X40.051 Y7.581
X40.781 Y7.857
X40.845 Y7.886
X40.909 Y7.932
X40.959 Y7.987
X42.736 Y10.532
X43.333 Y10.686
X43.549 Y11.053
X45.790 Y11.053
X45.838 Y10.869
X46.452 Y10.508
X47.143 Y10.686
X47.359 Y11.053
X49.600 Y11.053
X49.648 Y10.869
X50.014 Y10.654
X50.014 Y6.506
X48.964 Y5.457
X47.373 Y5.457
X47.326 Y5.641
X46.712 Y6.003
X46.021 Y5.824
X45.659 Y5.210
X45.838 Y4.519
X46.403 Y4.187
X4.829 Y4.187
X3.800 Y5.216
X3.800 Y13.453
X4.956 Y14.609
X4.973 Y14.557
X5.128 Y14.289
X5.334 Y14.060
X5.584 Y13.878
X5.866 Y13.753
X6.168 Y13.688
X6.477 Y13.688
X6.779 Y13.753
X7.062 Y13.878
X7.311 Y14.060
X7.518 Y14.289
X7.672 Y14.557
X7.768 Y14.850
X7.799 Y15.151
X7.799 Y17.869
X7.768 Y18.170
X7.672 Y18.463
X7.518 Y18.731
X7.311 Y18.960
X7.062 Y19.142
X6.779 Y19.268
X6.477 Y19.332
X6.168 Y19.332
X5.866 Y19.268
X5.584 Y19.142
X5.334 Y18.960
X5.128 Y18.731
X4.973 Y18.463
X4.878 Y18.170
X4.846 Y17.869
X4.846 Y15.568
X3.162 Y13.883
X3.115 Y13.832
X3.076 Y13.763
X3.051 Y13.688
X3.044 Y13.616
X3.044 Y5.054
X3.051 Y4.981
X3.076 Y4.906
X3.115 Y4.837
X3.162 Y4.786
X4.421 Y3.527
X4.482 Y3.482
X4.555 Y3.450
X4.632 Y3.433
X52.160 Y3.433
X52.235 Y3.304
X52.355 Y3.170
X52.501 Y3.064
X52.666 Y2.991
X52.842 Y2.953
X53.022 Y2.953
X53.198 Y2.991
X53.363 Y3.064
X53.508 Y3.170
X53.629 Y3.304
X53.719 Y3.460
X53.774 Y3.631
X53.793 Y3.810
X53.774 Y3.989
X53.719 Y4.160
X53.629 Y4.316
X53.508 Y4.450
X53.363 Y4.556
X53.198 Y4.629
X53.022 Y4.667
X52.842 Y4.667
X52.666 Y4.629
X52.501 Y4.556
X52.355 Y4.450
X52.235 Y4.316
X52.160 Y4.187
X46.565 Y4.187
X47.143 Y4.336
X47.359 Y4.703
X49.161 Y4.703
X49.239 Y4.720
X49.311 Y4.752
X49.373 Y4.797
X50.549 Y5.973
X52.428 Y5.973
X54.748 Y3.654
X54.809 Y3.609
X54.881 Y3.577
X54.959 Y3.560
X57.187 Y3.560
X57.268 Y3.249
X57.882 Y2.888
X58.573 Y3.066
X58.789 Y3.433
X66.603 Y3.433
X66.772 Y3.140
X67.234 Y2.628
X67.792 Y2.222
X68.422 Y1.942
X69.097 Y1.798
X69.787 Y1.798
X70.462 Y1.942
X71.092 Y2.222
X71.650 Y2.628
X72.111 Y3.140
X72.456 Y3.738
X72.669 Y4.394
X72.742 Y5.080
X72.669 Y5.766
X72.456 Y6.422
X72.111 Y7.020
X71.650 Y7.532
X71.092 Y7.938
X70.462 Y8.218
X69.787 Y8.362
X69.097 Y8.362
X68.422 Y8.218
X67.792 Y7.938
X67.280 Y7.566
X67.280 Y9.308
X67.371 Y9.348
X67.529 Y9.463
X67.660 Y9.609
X67.758 Y9.779
X67.819 Y9.965
X67.839 Y10.160
X67.819 Y10.355
X67.758 Y10.541
X67.660 Y10.711
X67.529 Y10.857
X67.371 Y10.972
X67.192 Y11.052
X67.000 Y11.092
X66.804 Y11.092
X66.612 Y11.052
X66.433 Y10.972
X66.274 Y10.857
X66.143 Y10.711
X66.045 Y10.541
X65.985 Y10.355
X65.964 Y10.160
X65.985 Y9.965
X66.045 Y9.779
X66.143 Y9.609
X66.274 Y9.463
X66.433 Y9.348
X66.524 Y9.308
X66.524 Y6.589
X66.427 Y6.422
X66.214 Y5.766
X66.142 Y5.080
X66.214 Y4.394
X66.282 Y4.187
X58.803 Y4.187
X58.756 Y4.371
X58.142 Y4.732
X57.451 Y4.554
X57.310 Y4.314
X55.156 Y4.314
X53.999 Y5.471
X54.072 Y5.428
X54.763 Y5.606
X54.979 Y5.973
X58.051 Y5.973
X58.129 Y5.990
X58.201 Y6.022
X58.263 Y6.067
X61.485 Y9.289
X61.532 Y9.268
X61.724 Y9.228
X61.920 Y9.228
X62.111 Y9.268
X62.291 Y9.348
X62.449 Y9.463
X62.580 Y9.609
X62.678 Y9.779
X62.739 Y9.965
X62.759 Y10.160
X62.739 Y10.355
X62.678 Y10.541
X62.580 Y10.711
X62.449 Y10.857
X62.291 Y10.972
X62.111 Y11.052
X61.920 Y11.092
X61.724 Y11.092
X61.532 Y11.052
X61.353 Y10.972
X61.194 Y10.857
X61.063 Y10.711
X60.965 Y10.541
X60.905 Y10.355
X60.884 Y10.160
X60.905 Y9.965
X60.951 Y9.823
X57.854 Y6.727
X54.993 Y6.727
X54.946 Y6.911
X54.332 Y7.272
X53.641 Y7.094
X53.279 Y6.480
X53.380 Y6.089
X52.836 Y6.633
X52.775 Y6.678
X52.702 Y6.710
X52.625 Y6.727
X50.770 Y6.727
X50.770 Y10.639
X50.953 Y10.686
X51.314 Y11.300
X51.136 Y11.991
X50.522 Y12.353
X49.831 Y12.174
X49.615 Y11.807
X47.373 Y11.807
X47.326 Y11.991
X46.712 Y12.353
X46.021 Y12.174
X45.805 Y11.807
X43.563 Y11.807
X43.516 Y11.991
X42.901 Y12.353
X42.490 Y12.246
X40.483 Y14.253
X40.421 Y14.298
X40.349 Y14.330
X40.271 Y14.347
X30.032 Y14.347
X29.955 Y14.330
X29.882 Y14.298
X29.821 Y14.253
X28.802 Y13.234
X27.783 Y14.253
X27.721 Y14.298
X27.649 Y14.330
X27.571 Y14.347
X22.629 Y14.347
X19.040 Y17.936
X19.040 Y24.117
X19.032 Y24.189
X19.020 Y24.227
X19.020 Y27.947
X19.012 Y28.019
X18.988 Y28.094
X18.948 Y28.163
X18.902 Y28.214
X15.001 Y32.115
X15.383 Y32.764
X15.030 Y34.127
X13.818 Y34.841
X12.592 Y34.524
X12.543 Y34.573
X12.481 Y34.618
X12.409 Y34.650
X12.331 Y34.667
X10.472 Y34.667
X10.440 Y34.976
X10.226 Y35.632
X9.881 Y36.230
X9.420 Y36.742
X8.862 Y37.148
X8.232 Y37.428
X7.560 Y37.571
X18.636 Y37.571
X20.804 Y35.404
X20.804 Y29.204
X20.811 Y29.131
X20.836 Y29.056
X20.875 Y28.987
X20.922 Y28.936
X22.201 Y27.657
X22.262 Y27.612
X22.335 Y27.580
X22.412 Y27.563
X38.154 Y27.563
X40.531 Y25.186
X40.529 Y25.183
X40.461 Y24.971
X40.437 Y24.750
X40.461 Y24.529
X40.529 Y24.317
X40.641 Y24.124
X40.790 Y23.959
X40.970 Y23.828
X41.173 Y23.738
X41.391 Y23.691
X41.613 Y23.691
X41.831 Y23.738
X42.034 Y23.828
X42.214 Y23.959
X42.363 Y24.124
X42.474 Y24.317
X42.543 Y24.529
X42.566 Y24.750
X42.543 Y24.971
X42.474 Y25.183
X42.363 Y25.376
X42.214 Y25.541
X42.034 Y25.672
X41.831 Y25.763
X41.613 Y25.809
X41.391 Y25.809
X41.173 Y25.763
X41.069 Y25.716
X38.563 Y28.223
X38.501 Y28.268
X38.429 Y28.300
X38.351 Y28.317
X22.609 Y28.317
X21.560 Y29.366
X21.560 Y35.567
X21.552 Y35.639
X21.528 Y35.714
X21.488 Y35.783
X21.442 Y35.834
X19.045 Y38.231
X18.983 Y38.276
X18.911 Y38.308
X18.834 Y38.325
X4.632 Y38.325
G0 Z3.000
G0  X18.898 Y34.841
G0  Z3.000
G01 F400 Z0
G01 F400 Z-0.100
G01F400X17.535 Y34.489
X16.821 Y33.276
X17.173 Y31.913
X18.264 Y31.271
X18.264 Y30.474
X18.271 Y30.401
X18.296 Y30.326
X18.335 Y30.257
X18.382 Y30.206
X22.201 Y26.387
X22.262 Y26.342
X22.335 Y26.310
X22.412 Y26.293
X29.224 Y26.293
X30.331 Y25.186
X30.329 Y25.183
X30.261 Y24.971
X30.237 Y24.750
X30.261 Y24.529
X30.329 Y24.317
X30.441 Y24.124
X30.590 Y23.959
X30.770 Y23.828
X30.973 Y23.738
X31.191 Y23.691
X31.413 Y23.691
X31.631 Y23.738
X31.834 Y23.828
X32.014 Y23.959
X32.163 Y24.124
X32.274 Y24.317
X32.343 Y24.529
X32.366 Y24.750
X32.343 Y24.971
X32.274 Y25.183
X32.163 Y25.376
X32.014 Y25.541
X31.834 Y25.672
X31.631 Y25.763
X31.413 Y25.809
X31.191 Y25.809
X30.973 Y25.763
X30.870 Y25.716
X29.633 Y26.953
X29.571 Y26.998
X29.499 Y27.030
X29.421 Y27.047
X22.609 Y27.047
X19.020 Y30.636
X19.020 Y31.363
X19.748 Y31.551
X20.463 Y32.764
X20.110 Y34.127
X18.898 Y34.841
G0 Z3.000
G0  X33.032 Y33.366
G0  Z3.000
G01 F400 Z0
G01 F400 Z-0.100
G01F400X32.700 Y33.295
X32.389 Y33.157
X32.115 Y32.957
X31.887 Y32.705
X31.718 Y32.411
X31.613 Y32.088
X31.577 Y31.750
X31.613 Y31.412
X31.718 Y31.089
X31.887 Y30.795
X32.115 Y30.543
X32.389 Y30.343
X32.700 Y30.205
X33.032 Y30.134
X33.372 Y30.134
X33.704 Y30.205
X34.014 Y30.343
X34.289 Y30.543
X34.516 Y30.795
X34.686 Y31.089
X34.791 Y31.412
X34.827 Y31.750
X34.791 Y32.088
X34.686 Y32.411
X34.516 Y32.705
X34.289 Y32.957
X34.014 Y33.157
X33.704 Y33.295
X33.372 Y33.366
X33.032 Y33.366
G0 Z3.000
G0  X24.232 Y33.366
G0  Z3.000
G01 F400 Z0
G01 F400 Z-0.100
G01F400X23.900 Y33.295
X23.589 Y33.157
X23.315 Y32.957
X23.087 Y32.705
X22.918 Y32.411
X22.813 Y32.088
X22.777 Y31.750
X22.813 Y31.412
X22.918 Y31.089
X23.087 Y30.795
X23.315 Y30.543
X23.589 Y30.343
X23.900 Y30.205
X24.232 Y30.134
X24.572 Y30.134
X24.904 Y30.205
X25.214 Y30.343
X25.489 Y30.543
X25.716 Y30.795
X25.886 Y31.089
X25.991 Y31.412
X26.027 Y31.750
X25.991 Y32.088
X25.886 Y32.411
X25.716 Y32.705
X25.489 Y32.957
X25.214 Y33.157
X24.904 Y33.295
X24.572 Y33.366
X24.232 Y33.366
G0 Z3.000
G0  X45.732 Y33.366
G0  Z3.000
G01 F400 Z0
G01 F400 Z-0.100
G01F400X45.400 Y33.295
X45.089 Y33.157
X44.815 Y32.957
X44.587 Y32.705
X44.418 Y32.411
X44.313 Y32.088
X44.277 Y31.750
X44.313 Y31.412
X44.418 Y31.089
X44.587 Y30.795
X44.815 Y30.543
X45.089 Y30.343
X45.400 Y30.205
X45.732 Y30.134
X46.072 Y30.134
X46.404 Y30.205
X46.714 Y30.343
X46.989 Y30.543
X47.216 Y30.795
X47.386 Y31.089
X47.491 Y31.412
X47.527 Y31.750
X47.491 Y32.088
X47.386 Y32.411
X47.216 Y32.705
X46.989 Y32.957
X46.714 Y33.157
X46.404 Y33.295
X46.072 Y33.366
X45.732 Y33.366
G0 Z3.000
G0  X36.932 Y33.366
G0  Z3.000
G01 F400 Z0
G01 F400 Z-0.100
G01F400X36.600 Y33.295
X36.289 Y33.157
X36.015 Y32.957
X35.787 Y32.705
X35.617 Y32.411
X35.513 Y32.088
X35.477 Y31.750
X35.513 Y31.412
X35.617 Y31.089
X35.787 Y30.795
X36.015 Y30.543
X36.289 Y30.343
X36.600 Y30.205
X36.932 Y30.134
X37.272 Y30.134
X37.604 Y30.205
X37.914 Y30.343
X38.189 Y30.543
X38.416 Y30.795
X38.586 Y31.089
X38.691 Y31.412
X38.727 Y31.750
X38.691 Y32.088
X38.586 Y32.411
X38.416 Y32.705
X38.189 Y32.957
X37.914 Y33.157
X37.604 Y33.295
X37.272 Y33.366
X36.932 Y33.366
G0 Z3.000
G0  X62.332 Y33.366
G0  Z3.000
G01 F400 Z0
G01 F400 Z-0.100
G01F400X62.000 Y33.295
X61.689 Y33.157
X61.415 Y32.957
X61.187 Y32.705
X61.018 Y32.411
X60.913 Y32.088
X60.877 Y31.750
X60.913 Y31.412
X61.018 Y31.089
X61.187 Y30.795
X61.415 Y30.543
X61.689 Y30.343
X62.000 Y30.205
X62.332 Y30.134
X62.672 Y30.134
X63.004 Y30.205
X63.314 Y30.343
X63.589 Y30.543
X63.816 Y30.795
X63.986 Y31.089
X64.091 Y31.412
X64.127 Y31.750
X64.091 Y32.088
X63.986 Y32.411
X63.816 Y32.705
X63.589 Y32.957
X63.314 Y33.157
X63.004 Y33.295
X62.672 Y33.366
X62.332 Y33.366
G0 Z3.000
G0  X71.132 Y33.366
G0  Z3.000
G01 F400 Z0
G01 F400 Z-0.100
G01F400X70.800 Y33.295
X70.489 Y33.157
X70.215 Y32.957
X69.987 Y32.705
X69.818 Y32.411
X69.713 Y32.088
X69.677 Y31.750
X69.713 Y31.412
X69.818 Y31.089
X69.987 Y30.795
X70.215 Y30.543
X70.489 Y30.343
X70.800 Y30.205
X71.132 Y30.134
X71.472 Y30.134
X71.804 Y30.205
X72.114 Y30.343
X72.389 Y30.543
X72.616 Y30.795
X72.786 Y31.089
X72.891 Y31.412
X72.927 Y31.750
X72.891 Y32.088
X72.786 Y32.411
X72.616 Y32.705
X72.389 Y32.957
X72.114 Y33.157
X71.804 Y33.295
X71.472 Y33.366
X71.132 Y33.366
G0 Z3.000
G0  X58.432 Y33.366
G0  Z3.000
G01 F400 Z0
G01 F400 Z-0.100
G01F400X58.100 Y33.295
X57.789 Y33.157
X57.515 Y32.957
X57.287 Y32.705
X57.117 Y32.411
X57.013 Y32.088
X56.977 Y31.750
X57.013 Y31.412
X57.117 Y31.089
X57.287 Y30.795
X57.515 Y30.543
X57.789 Y30.343
X58.100 Y30.205
X58.432 Y30.134
X58.772 Y30.134
X59.104 Y30.205
X59.414 Y30.343
X59.689 Y30.543
X59.916 Y30.795
X60.086 Y31.089
X60.191 Y31.412
X60.227 Y31.750
X60.191 Y32.088
X60.086 Y32.411
X59.916 Y32.705
X59.689 Y32.957
X59.414 Y33.157
X59.104 Y33.295
X58.772 Y33.366
X58.432 Y33.366
G0 Z3.000
G0  X49.632 Y33.366
G0  Z3.000
G01 F400 Z0
G01 F400 Z-0.100
G01F400X49.300 Y33.295
X48.989 Y33.157
X48.715 Y32.957
X48.487 Y32.705
X48.318 Y32.411
X48.213 Y32.088
X48.177 Y31.750
X48.213 Y31.412
X48.318 Y31.089
X48.487 Y30.795
X48.715 Y30.543
X48.989 Y30.343
X49.300 Y30.205
X49.632 Y30.134
X49.972 Y30.134
X50.304 Y30.205
X50.614 Y30.343
X50.889 Y30.543
X51.116 Y30.795
X51.286 Y31.089
X51.391 Y31.412
X51.427 Y31.750
X51.391 Y32.088
X51.286 Y32.411
X51.116 Y32.705
X50.889 Y32.957
X50.614 Y33.157
X50.304 Y33.295
X49.972 Y33.366
X49.632 Y33.366
G0 Z3.000
G0  X15.566 Y28.222
G0  Z3.000
G01 F400 Z0
G01 F400 Z-0.100
G01F400X15.264 Y28.158
X14.982 Y28.032
X14.732 Y27.851
X14.526 Y27.621
X14.371 Y27.354
X14.276 Y27.060
X14.244 Y26.759
X14.244 Y24.041
X14.276 Y23.740
X14.371 Y23.447
X14.526 Y23.179
X14.732 Y22.950
X14.982 Y22.768
X15.264 Y22.643
X15.566 Y22.578
X15.875 Y22.578
X16.177 Y22.643
X16.460 Y22.768
X16.709 Y22.950
X16.916 Y23.179
X17.070 Y23.447
X17.166 Y23.740
X17.197 Y24.041
X17.197 Y26.759
X17.166 Y27.060
X17.070 Y27.354
X16.916 Y27.621
X16.709 Y27.851
X16.460 Y28.032
X16.177 Y28.158
X15.875 Y28.222
X15.566 Y28.222
G0 Z3.000
G0  X10.867 Y28.222
G0  Z3.000
G01 F400 Z0
G01 F400 Z-0.100
G01F400X10.565 Y28.158
X10.283 Y28.032
X10.033 Y27.851
X9.827 Y27.621
X9.672 Y27.354
X9.577 Y27.060
X9.545 Y26.759
X9.545 Y24.041
X9.577 Y23.740
X9.672 Y23.447
X9.827 Y23.179
X10.033 Y22.950
X10.283 Y22.768
X10.565 Y22.643
X10.867 Y22.578
X11.176 Y22.578
X11.478 Y22.643
X11.761 Y22.768
X12.010 Y22.950
X12.217 Y23.179
X12.371 Y23.447
X12.467 Y23.740
X12.498 Y24.041
X12.498 Y26.759
X12.467 Y27.060
X12.371 Y27.354
X12.217 Y27.621
X12.010 Y27.851
X11.761 Y28.032
X11.478 Y28.158
X11.176 Y28.222
X10.867 Y28.222
G0 Z3.000
G0  X28.691 Y25.809
G0  Z3.000
G01 F400 Z0
G01 F400 Z-0.100
G01F400X28.473 Y25.763
X28.270 Y25.672
X28.090 Y25.541
X27.941 Y25.376
X27.829 Y25.183
X27.761 Y24.971
X27.737 Y24.750
X27.761 Y24.529
X27.829 Y24.317
X27.941 Y24.124
X28.090 Y23.959
X28.270 Y23.828
X28.424 Y23.759
X28.424 Y22.854
X28.431 Y22.781
X28.456 Y22.706
X28.495 Y22.637
X28.542 Y22.586
X29.821 Y21.307
X29.882 Y21.262
X29.955 Y21.230
X30.032 Y21.213
X37.534 Y21.213
X38.355 Y20.393
X38.265 Y20.293
X38.175 Y20.137
X38.119 Y19.966
X38.101 Y19.793
X38.101 Y18.307
X38.119 Y18.134
X38.175 Y17.963
X38.265 Y17.807
X38.385 Y17.673
X38.531 Y17.567
X38.696 Y17.494
X38.872 Y17.457
X39.052 Y17.457
X39.228 Y17.494
X39.393 Y17.567
X39.538 Y17.673
X39.659 Y17.807
X39.749 Y17.963
X39.804 Y18.134
X39.823 Y18.307
X39.823 Y19.793
X39.804 Y19.966
X39.749 Y20.137
X39.659 Y20.293
X39.538 Y20.427
X39.393 Y20.533
X39.236 Y20.602
X39.201 Y20.616
X38.226 Y21.590
X39.119 Y22.483
X42.789 Y22.483
X42.211 Y22.334
X41.849 Y21.720
X42.028 Y21.029
X42.394 Y20.814
X42.394 Y19.206
X40.074 Y16.887
X27.689 Y16.887
X26.869 Y17.707
X26.959 Y17.807
X27.049 Y17.963
X27.104 Y18.134
X27.123 Y18.307
X27.123 Y19.793
X27.104 Y19.966
X27.049 Y20.137
X26.959 Y20.293
X26.838 Y20.427
X26.693 Y20.533
X26.528 Y20.606
X26.352 Y20.643
X26.172 Y20.643
X25.996 Y20.606
X25.831 Y20.533
X25.685 Y20.427
X25.565 Y20.293
X25.475 Y20.137
X25.419 Y19.966
X25.401 Y19.793
X25.401 Y18.307
X25.419 Y18.134
X25.475 Y17.963
X25.565 Y17.807
X25.685 Y17.673
X25.831 Y17.567
X25.987 Y17.498
X26.023 Y17.484
X27.281 Y16.227
X27.342 Y16.182
X27.415 Y16.150
X27.492 Y16.133
X40.271 Y16.133
X40.349 Y16.150
X40.421 Y16.182
X40.483 Y16.227
X43.032 Y18.776
X43.078 Y18.827
X43.118 Y18.896
X43.142 Y18.971
X43.150 Y19.044
X43.150 Y20.799
X43.333 Y20.846
X43.694 Y21.460
X43.516 Y22.151
X42.951 Y22.483
X46.599 Y22.483
X46.021 Y22.334
X45.659 Y21.720
X45.838 Y21.029
X46.204 Y20.814
X46.204 Y19.206
X42.614 Y15.617
X23.879 Y15.617
X21.789 Y17.707
X21.879 Y17.807
X21.969 Y17.963
X22.024 Y18.134
X22.043 Y18.307
X22.043 Y19.793
X22.024 Y19.966
X21.969 Y20.137
X21.879 Y20.293
X21.758 Y20.427
X21.613 Y20.533
X21.448 Y20.606
X21.272 Y20.643
X21.092 Y20.643
X20.916 Y20.606
X20.751 Y20.533
X20.605 Y20.427
X20.485 Y20.293
X20.395 Y20.137
X20.339 Y19.966
X20.321 Y19.793
X20.321 Y18.307
X20.339 Y18.134
X20.395 Y17.963
X20.485 Y17.807
X20.605 Y17.673
X20.751 Y17.567
X20.907 Y17.498
X20.943 Y17.484
X23.471 Y14.957
X23.532 Y14.912
X23.605 Y14.880
X23.682 Y14.863
X42.811 Y14.863
X42.889 Y14.880
X42.961 Y14.912
X43.023 Y14.957
X46.582 Y18.516
X48.871 Y16.227
X48.932 Y16.182
X49.005 Y16.150
X49.082 Y16.133
X49.620 Y16.133
X49.695 Y16.004
X49.815 Y15.870
X49.961 Y15.764
X50.126 Y15.691
X50.302 Y15.653
X50.482 Y15.653
X50.658 Y15.691
X50.823 Y15.764
X50.968 Y15.870
X51.089 Y16.004
X51.163 Y16.133
X53.410 Y16.133
X53.458 Y15.949
X54.072 Y15.588
X54.763 Y15.766
X55.124 Y16.380
X54.946 Y17.071
X54.332 Y17.433
X53.641 Y17.254
X53.425 Y16.887
X51.163 Y16.887
X51.089 Y17.016
X50.968 Y17.150
X50.823 Y17.256
X50.658 Y17.329
X50.482 Y17.367
X50.302 Y17.367
X50.126 Y17.329
X49.961 Y17.256
X49.815 Y17.150
X49.695 Y17.016
X49.620 Y16.887
X49.279 Y16.887
X46.960 Y19.206
X46.960 Y20.799
X47.143 Y20.846
X47.504 Y21.460
X47.326 Y22.151
X46.761 Y22.483
X47.694 Y22.483
X48.744 Y21.434
X48.744 Y20.314
X48.751 Y20.241
X48.776 Y20.166
X48.815 Y20.097
X48.862 Y20.046
X50.141 Y18.767
X50.202 Y18.722
X50.275 Y18.690
X50.352 Y18.673
X54.044 Y18.673
X56.364 Y16.354
X56.364 Y13.963
X56.371 Y13.891
X56.396 Y13.816
X56.435 Y13.747
X56.482 Y13.696
X57.761 Y12.417
X57.822 Y12.372
X57.895 Y12.340
X57.972 Y12.323
X58.904 Y12.323
X58.904 Y11.012
X58.813 Y10.972
X58.654 Y10.857
X58.523 Y10.711
X58.425 Y10.541
X58.365 Y10.355
X58.344 Y10.160
X58.365 Y9.965
X58.425 Y9.779
X58.523 Y9.609
X58.654 Y9.463
X58.813 Y9.348
X58.992 Y9.268
X59.184 Y9.228
X59.380 Y9.228
X59.572 Y9.268
X59.751 Y9.348
X59.909 Y9.463
X60.040 Y9.609
X60.138 Y9.779
X60.199 Y9.965
X60.219 Y10.160
X60.199 Y10.355
X60.138 Y10.541
X60.040 Y10.711
X59.909 Y10.857
X59.751 Y10.972
X59.660 Y11.012
X59.660 Y12.323
X61.861 Y12.323
X61.939 Y12.340
X62.011 Y12.372
X62.073 Y12.417
X66.565 Y16.909
X66.612 Y16.888
X66.804 Y16.848
X67.000 Y16.848
X67.192 Y16.888
X67.371 Y16.968
X67.529 Y17.083
X67.660 Y17.229
X67.758 Y17.399
X67.819 Y17.585
X67.839 Y17.780
X67.819 Y17.975
X67.758 Y18.161
X67.660 Y18.331
X67.529 Y18.477
X67.371 Y18.592
X67.280 Y18.632
X67.280 Y23.759
X67.434 Y23.828
X67.614 Y23.959
X67.763 Y24.124
X67.874 Y24.317
X67.943 Y24.529
X67.966 Y24.750
X67.943 Y24.971
X67.874 Y25.183
X67.763 Y25.376
X67.614 Y25.541
X67.434 Y25.672
X67.231 Y25.763
X67.013 Y25.809
X66.791 Y25.809
X66.573 Y25.763
X66.370 Y25.672
X66.190 Y25.541
X66.041 Y25.376
X65.929 Y25.183
X65.861 Y24.971
X65.837 Y24.750
X65.861 Y24.529
X65.929 Y24.317
X66.041 Y24.124
X66.190 Y23.959
X66.370 Y23.828
X66.524 Y23.759
X66.524 Y18.632
X66.433 Y18.592
X66.274 Y18.477
X66.143 Y18.331
X66.045 Y18.161
X65.985 Y17.975
X65.964 Y17.780
X65.985 Y17.585
X66.031 Y17.443
X61.664 Y13.077
X58.169 Y13.077
X57.120 Y14.126
X57.120 Y16.517
X57.112 Y16.589
X57.088 Y16.664
X57.048 Y16.733
X57.002 Y16.784
X54.453 Y19.333
X54.391 Y19.378
X54.319 Y19.410
X54.241 Y19.427
X50.549 Y19.427
X49.500 Y20.476
X49.500 Y21.597
X49.492 Y21.669
X49.468 Y21.744
X49.428 Y21.813
X49.382 Y21.864
X48.103 Y23.143
X48.041 Y23.188
X47.969 Y23.220
X47.891 Y23.237
X38.922 Y23.237
X38.845 Y23.220
X38.772 Y23.188
X38.711 Y23.143
X37.534 Y21.967
X30.229 Y21.967
X29.180 Y23.016
X29.180 Y23.759
X29.334 Y23.828
X29.514 Y23.959
X29.663 Y24.124
X29.774 Y24.317
X29.843 Y24.529
X29.866 Y24.750
X29.843 Y24.971
X29.774 Y25.183
X29.663 Y25.376
X29.514 Y25.541
X29.334 Y25.672
X29.131 Y25.763
X28.913 Y25.809
X28.691 Y25.809
G0 Z3.000
G0  X26.191 Y25.809
G0  Z3.000
G01 F400 Z0
G01 F400 Z-0.100
G01F400X25.973 Y25.763
X25.770 Y25.672
X25.590 Y25.541
X25.441 Y25.376
X25.329 Y25.183
X25.261 Y24.971
X25.237 Y24.750
X25.261 Y24.529
X25.329 Y24.317
X25.441 Y24.124
X25.590 Y23.959
X25.770 Y23.828
X25.973 Y23.738
X26.191 Y23.691
X26.413 Y23.691
X26.631 Y23.738
X26.834 Y23.828
X27.014 Y23.959
X27.163 Y24.124
X27.274 Y24.317
X27.343 Y24.529
X27.366 Y24.750
X27.343 Y24.971
X27.274 Y25.183
X27.163 Y25.376
X27.014 Y25.541
X26.834 Y25.672
X26.631 Y25.763
X26.413 Y25.809
X26.191 Y25.809
G0 Z3.000
G0  X43.891 Y25.809
G0  Z3.000
G01 F400 Z0
G01 F400 Z-0.100
G01F400X43.673 Y25.763
X43.470 Y25.672
X43.290 Y25.541
X43.141 Y25.376
X43.029 Y25.183
X42.961 Y24.971
X42.937 Y24.750
X42.961 Y24.529
X43.029 Y24.317
X43.141 Y24.124
X43.290 Y23.959
X43.470 Y23.828
X43.673 Y23.738
X43.891 Y23.691
X44.113 Y23.691
X44.331 Y23.738
X44.534 Y23.828
X44.714 Y23.959
X44.863 Y24.124
X44.974 Y24.317
X45.043 Y24.529
X45.066 Y24.750
X45.043 Y24.971
X44.974 Y25.183
X44.863 Y25.376
X44.714 Y25.541
X44.534 Y25.672
X44.331 Y25.763
X44.113 Y25.809
X43.891 Y25.809
G0 Z3.000
G0  X38.891 Y25.809
G0  Z3.000
G01 F400 Z0
G01 F400 Z-0.100
G01F400X38.673 Y25.763
X38.470 Y25.672
X38.290 Y25.541
X38.141 Y25.376
X38.029 Y25.183
X37.961 Y24.971
X37.937 Y24.750
X37.961 Y24.529
X38.029 Y24.317
X38.141 Y24.124
X38.290 Y23.959
X38.470 Y23.828
X38.673 Y23.738
X38.891 Y23.691
X39.113 Y23.691
X39.331 Y23.738
X39.534 Y23.828
X39.714 Y23.959
X39.863 Y24.124
X39.974 Y24.317
X40.043 Y24.529
X40.066 Y24.750
X40.043 Y24.971
X39.974 Y25.183
X39.863 Y25.376
X39.714 Y25.541
X39.534 Y25.672
X39.331 Y25.763
X39.113 Y25.809
X38.891 Y25.809
G0 Z3.000
G0  X56.591 Y25.809
G0  Z3.000
G01 F400 Z0
G01 F400 Z-0.100
G01F400X56.373 Y25.763
X56.169 Y25.672
X55.989 Y25.541
X55.841 Y25.376
X55.729 Y25.183
X55.661 Y24.971
X55.637 Y24.750
X55.661 Y24.529
X55.729 Y24.317
X55.841 Y24.124
X55.989 Y23.959
X56.169 Y23.828
X56.324 Y23.759
X56.324 Y22.893
X56.331 Y22.821
X56.356 Y22.746
X56.395 Y22.677
X56.442 Y22.626
X60.951 Y18.117
X60.905 Y17.975
X60.884 Y17.780
X60.905 Y17.585
X60.965 Y17.399
X61.063 Y17.229
X61.194 Y17.083
X61.353 Y16.968
X61.532 Y16.888
X61.724 Y16.848
X61.920 Y16.848
X62.111 Y16.888
X62.291 Y16.968
X62.449 Y17.083
X62.580 Y17.229
X62.678 Y17.399
X62.739 Y17.585
X62.759 Y17.780
X62.739 Y17.975
X62.678 Y18.161
X62.580 Y18.331
X62.449 Y18.477
X62.291 Y18.592
X62.111 Y18.672
X61.920 Y18.712
X61.724 Y18.712
X61.532 Y18.672
X61.485 Y18.651
X57.080 Y23.056
X57.080 Y23.759
X57.234 Y23.828
X57.414 Y23.959
X57.563 Y24.124
X57.674 Y24.317
X57.743 Y24.529
X57.766 Y24.750
X57.743 Y24.971
X57.674 Y25.183
X57.563 Y25.376
X57.414 Y25.541
X57.234 Y25.672
X57.031 Y25.763
X56.813 Y25.809
X56.591 Y25.809
G0 Z3.000
G0  X69.291 Y25.809
G0  Z3.000
G01 F400 Z0
G01 F400 Z-0.100
G01F400X69.073 Y25.763
X68.870 Y25.672
X68.690 Y25.541
X68.541 Y25.376
X68.429 Y25.183
X68.361 Y24.971
X68.337 Y24.750
X68.361 Y24.529
X68.429 Y24.317
X68.541 Y24.124
X68.690 Y23.959
X68.870 Y23.828
X69.073 Y23.738
X69.291 Y23.691
X69.513 Y23.691
X69.731 Y23.738
X69.934 Y23.828
X70.114 Y23.959
X70.263 Y24.124
X70.374 Y24.317
X70.443 Y24.529
X70.466 Y24.750
X70.443 Y24.971
X70.374 Y25.183
X70.263 Y25.376
X70.114 Y25.541
X69.934 Y25.672
X69.731 Y25.763
X69.513 Y25.809
X69.291 Y25.809
G0 Z3.000
G0  X54.091 Y25.809
G0  Z3.000
G01 F400 Z0
G01 F400 Z-0.100
G01F400X53.873 Y25.763
X53.669 Y25.672
X53.489 Y25.541
X53.341 Y25.376
X53.229 Y25.183
X53.161 Y24.971
X53.137 Y24.750
X53.161 Y24.529
X53.229 Y24.317
X53.341 Y24.124
X53.489 Y23.959
X53.669 Y23.828
X53.824 Y23.759
X53.824 Y21.584
X53.831 Y21.511
X53.856 Y21.436
X53.895 Y21.367
X53.942 Y21.316
X57.634 Y17.624
X57.634 Y16.504
X57.641 Y16.431
X57.666 Y16.356
X57.705 Y16.287
X57.752 Y16.236
X59.031 Y14.957
X59.092 Y14.912
X59.165 Y14.880
X59.242 Y14.863
X61.861 Y14.863
X61.939 Y14.880
X62.011 Y14.912
X62.073 Y14.957
X64.025 Y16.909
X64.072 Y16.888
X64.264 Y16.848
X64.460 Y16.848
X64.651 Y16.888
X64.831 Y16.968
X64.989 Y17.083
X65.120 Y17.229
X65.218 Y17.399
X65.279 Y17.585
X65.299 Y17.780
X65.279 Y17.975
X65.218 Y18.161
X65.120 Y18.331
X64.989 Y18.477
X64.831 Y18.592
X64.740 Y18.632
X64.740 Y23.742
X64.934 Y23.828
X65.114 Y23.959
X65.263 Y24.124
X65.374 Y24.317
X65.443 Y24.529
X65.466 Y24.750
X65.443 Y24.971
X65.374 Y25.183
X65.263 Y25.376
X65.114 Y25.541
X64.934 Y25.672
X64.731 Y25.763
X64.513 Y25.809
X64.291 Y25.809
X64.073 Y25.763
X63.870 Y25.672
X63.690 Y25.541
X63.541 Y25.376
X63.429 Y25.183
X63.361 Y24.971
X63.337 Y24.750
X63.361 Y24.529
X63.429 Y24.317
X63.541 Y24.124
X63.690 Y23.959
X63.870 Y23.828
X63.984 Y23.777
X63.984 Y18.632
X63.893 Y18.592
X63.734 Y18.477
X63.603 Y18.331
X63.505 Y18.161
X63.445 Y17.975
X63.424 Y17.780
X63.445 Y17.585
X63.491 Y17.443
X61.664 Y15.617
X59.439 Y15.617
X58.390 Y16.666
X58.390 Y17.508
X58.425 Y17.399
X58.523 Y17.229
X58.654 Y17.083
X58.813 Y16.968
X58.992 Y16.888
X59.184 Y16.848
X59.380 Y16.848
X59.572 Y16.888
X59.751 Y16.968
X59.909 Y17.083
X60.040 Y17.229
X60.138 Y17.399
X60.199 Y17.585
X60.219 Y17.780
X60.199 Y17.975
X60.138 Y18.161
X60.040 Y18.331
X59.909 Y18.477
X59.751 Y18.592
X59.572 Y18.672
X59.380 Y18.712
X59.184 Y18.712
X58.992 Y18.672
X58.813 Y18.592
X58.654 Y18.477
X58.523 Y18.331
X58.425 Y18.161
X58.365 Y17.975
X58.360 Y17.928
X58.358 Y17.934
X58.318 Y18.003
X58.272 Y18.054
X54.580 Y21.746
X54.580 Y23.759
X54.734 Y23.828
X54.914 Y23.959
X55.063 Y24.124
X55.174 Y24.317
X55.243 Y24.529
X55.266 Y24.750
X55.243 Y24.971
X55.174 Y25.183
X55.063 Y25.376
X54.914 Y25.541
X54.734 Y25.672
X54.531 Y25.763
X54.313 Y25.809
X54.091 Y25.809
G0 Z3.000
G0  X51.591 Y25.809
G0  Z3.000
G01 F400 Z0
G01 F400 Z-0.100
G01F400X51.373 Y25.763
X51.169 Y25.672
X50.989 Y25.541
X50.841 Y25.376
X50.729 Y25.183
X50.660 Y24.971
X50.637 Y24.750
X50.660 Y24.529
X50.729 Y24.317
X50.841 Y24.124
X50.989 Y23.959
X51.169 Y23.828
X51.373 Y23.738
X51.591 Y23.691
X51.813 Y23.691
X52.031 Y23.738
X52.234 Y23.828
X52.414 Y23.959
X52.563 Y24.124
X52.674 Y24.317
X52.743 Y24.529
X52.766 Y24.750
X52.743 Y24.971
X52.674 Y25.183
X52.563 Y25.376
X52.414 Y25.541
X52.234 Y25.672
X52.031 Y25.763
X51.813 Y25.809
X51.591 Y25.809
G0 Z3.000
G0  X23.632 Y20.643
G0  Z3.000
G01 F400 Z0
G01 F400 Z-0.100
G01F400X23.456 Y20.606
X23.291 Y20.533
X23.145 Y20.427
X23.025 Y20.293
X22.935 Y20.137
X22.879 Y19.966
X22.861 Y19.793
X22.861 Y18.307
X22.879 Y18.134
X22.935 Y17.963
X23.025 Y17.807
X23.145 Y17.673
X23.291 Y17.567
X23.456 Y17.494
X23.632 Y17.457
X23.812 Y17.457
X23.988 Y17.494
X24.152 Y17.567
X24.298 Y17.673
X24.419 Y17.807
X24.509 Y17.963
X24.564 Y18.134
X24.582 Y18.307
X24.582 Y19.793
X24.564 Y19.966
X24.509 Y20.137
X24.419 Y20.293
X24.298 Y20.427
X24.152 Y20.533
X23.988 Y20.606
X23.812 Y20.643
X23.632 Y20.643
G0 Z3.000
G0  X28.712 Y20.643
G0  Z3.000
G01 F400 Z0
G01 F400 Z-0.100
G01F400X28.536 Y20.606
X28.371 Y20.533
X28.225 Y20.427
X28.105 Y20.293
X28.015 Y20.137
X27.959 Y19.966
X27.941 Y19.793
X27.941 Y18.307
X27.959 Y18.134
X28.015 Y17.963
X28.105 Y17.807
X28.225 Y17.673
X28.371 Y17.567
X28.536 Y17.494
X28.712 Y17.457
X28.892 Y17.457
X29.068 Y17.494
X29.233 Y17.567
X29.378 Y17.673
X29.499 Y17.807
X29.589 Y17.963
X29.644 Y18.134
X29.663 Y18.307
X29.663 Y19.793
X29.644 Y19.966
X29.589 Y20.137
X29.499 Y20.293
X29.378 Y20.427
X29.233 Y20.533
X29.068 Y20.606
X28.892 Y20.643
X28.712 Y20.643
G0 Z3.000
G0  X33.792 Y20.643
G0  Z3.000
G01 F400 Z0
G01 F400 Z-0.100
G01F400X33.616 Y20.606
X33.451 Y20.533
X33.305 Y20.427
X33.185 Y20.293
X33.095 Y20.137
X33.039 Y19.966
X33.021 Y19.793
X33.021 Y18.307
X33.039 Y18.134
X33.095 Y17.963
X33.185 Y17.807
X33.305 Y17.673
X33.451 Y17.567
X33.616 Y17.494
X33.792 Y17.457
X33.972 Y17.457
X34.148 Y17.494
X34.313 Y17.567
X34.458 Y17.673
X34.579 Y17.807
X34.669 Y17.963
X34.724 Y18.134
X34.742 Y18.307
X34.742 Y19.793
X34.724 Y19.966
X34.669 Y20.137
X34.579 Y20.293
X34.458 Y20.427
X34.313 Y20.533
X34.148 Y20.606
X33.972 Y20.643
X33.792 Y20.643
G0 Z3.000
G0  X31.252 Y20.643
G0  Z3.000
G01 F400 Z0
G01 F400 Z-0.100
G01F400X31.076 Y20.606
X30.911 Y20.533
X30.765 Y20.427
X30.645 Y20.293
X30.555 Y20.137
X30.499 Y19.966
X30.481 Y19.793
X30.481 Y18.307
X30.499 Y18.134
X30.555 Y17.963
X30.645 Y17.807
X30.765 Y17.673
X30.911 Y17.567
X31.076 Y17.494
X31.252 Y17.457
X31.432 Y17.457
X31.608 Y17.494
X31.773 Y17.567
X31.918 Y17.673
X32.039 Y17.807
X32.129 Y17.963
X32.184 Y18.134
X32.203 Y18.307
X32.203 Y19.793
X32.184 Y19.966
X32.129 Y20.137
X32.039 Y20.293
X31.918 Y20.427
X31.773 Y20.533
X31.608 Y20.606
X31.432 Y20.643
X31.252 Y20.643
G0 Z3.000
G0  X36.332 Y20.643
G0  Z3.000
G01 F400 Z0
G01 F400 Z-0.100
G01F400X36.156 Y20.606
X35.991 Y20.533
X35.845 Y20.427
X35.725 Y20.293
X35.635 Y20.137
X35.579 Y19.966
X35.561 Y19.793
X35.561 Y18.307
X35.579 Y18.134
X35.635 Y17.963
X35.725 Y17.807
X35.845 Y17.673
X35.991 Y17.567
X36.156 Y17.494
X36.332 Y17.457
X36.512 Y17.457
X36.688 Y17.494
X36.852 Y17.567
X36.998 Y17.673
X37.119 Y17.807
X37.209 Y17.963
X37.264 Y18.134
X37.282 Y18.307
X37.282 Y19.793
X37.264 Y19.966
X37.209 Y20.137
X37.119 Y20.293
X36.998 Y20.427
X36.852 Y20.533
X36.688 Y20.606
X36.512 Y20.643
X36.332 Y20.643
G0 Z3.000
G0  X10.867 Y19.332
G0  Z3.000
G01 F400 Z0
G01 F400 Z-0.100
G01F400X10.565 Y19.268
X10.283 Y19.142
X10.033 Y18.960
X9.827 Y18.731
X9.672 Y18.463
X9.577 Y18.170
X9.545 Y17.869
X9.545 Y15.151
X9.577 Y14.850
X9.672 Y14.557
X9.827 Y14.289
X10.033 Y14.060
X10.283 Y13.878
X10.565 Y13.753
X10.867 Y13.688
X11.176 Y13.688
X11.478 Y13.753
X11.761 Y13.878
X12.010 Y14.060
X12.217 Y14.289
X12.371 Y14.557
X12.467 Y14.850
X12.498 Y15.151
X12.498 Y17.869
X12.467 Y18.170
X12.371 Y18.463
X12.217 Y18.731
X12.010 Y18.960
X11.761 Y19.142
X11.478 Y19.268
X11.176 Y19.332
X10.867 Y19.332
G0 Z3.000
G0  X15.566 Y19.332
G0  Z3.000
G01 F400 Z0
G01 F400 Z-0.100
G01F400X15.264 Y19.268
X14.982 Y19.142
X14.732 Y18.960
X14.526 Y18.731
X14.371 Y18.463
X14.276 Y18.170
X14.244 Y17.869
X14.244 Y15.151
X14.276 Y14.850
X14.371 Y14.557
X14.526 Y14.289
X14.732 Y14.060
X14.982 Y13.878
X15.264 Y13.753
X15.566 Y13.688
X15.849 Y13.688
X18.264 Y11.274
X18.264 Y7.614
X18.271 Y7.541
X18.296 Y7.466
X18.335 Y7.397
X18.382 Y7.346
X21.007 Y4.720
X21.069 Y4.676
X21.141 Y4.644
X21.218 Y4.627
X40.774 Y4.627
X40.805 Y4.574
X40.925 Y4.440
X41.071 Y4.334
X41.236 Y4.261
X41.412 Y4.223
X41.592 Y4.223
X41.768 Y4.261
X41.933 Y4.334
X42.078 Y4.440
X42.199 Y4.574
X42.289 Y4.730
X42.344 Y4.901
X42.363 Y5.080
X42.344 Y5.259
X42.289 Y5.430
X42.199 Y5.586
X42.078 Y5.720
X41.933 Y5.826
X41.768 Y5.899
X41.592 Y5.937
X41.412 Y5.937
X41.236 Y5.899
X41.071 Y5.826
X40.925 Y5.720
X40.805 Y5.586
X40.715 Y5.430
X40.699 Y5.381
X21.416 Y5.381
X19.020 Y7.776
X19.020 Y11.437
X19.012 Y11.509
X18.988 Y11.584
X18.948 Y11.653
X18.902 Y11.704
X16.615 Y13.991
X16.709 Y14.060
X16.916 Y14.289
X17.070 Y14.557
X17.166 Y14.850
X17.197 Y15.151
X17.197 Y17.869
X17.166 Y18.170
X17.070 Y18.463
X16.916 Y18.731
X16.709 Y18.960
X16.460 Y19.142
X16.177 Y19.268
X15.875 Y19.332
X15.566 Y19.332
G0 Z3.000
G0  X31.252 Y13.023
G0  Z3.000
G01 F400 Z0
G01 F400 Z-0.100
G01F400X31.076 Y12.986
X30.911 Y12.913
X30.765 Y12.807
X30.645 Y12.673
X30.555 Y12.517
X30.499 Y12.346
X30.481 Y12.173
X30.481 Y10.687
X30.499 Y10.514
X30.555 Y10.343
X30.645 Y10.187
X30.765 Y10.053
X30.911 Y9.947
X31.067 Y9.878
X31.103 Y9.864
X32.361 Y8.607
X32.422 Y8.562
X32.495 Y8.530
X32.572 Y8.513
X35.337 Y8.509
X35.333 Y8.465
X35.333 Y6.775
X35.353 Y6.582
X35.415 Y6.390
X35.516 Y6.216
X35.650 Y6.066
X35.813 Y5.948
X35.997 Y5.866
X36.194 Y5.824
X36.395 Y5.824
X36.592 Y5.866
X36.776 Y5.948
X36.939 Y6.066
X37.074 Y6.216
X37.175 Y6.390
X37.237 Y6.582
X37.257 Y6.775
X37.257 Y8.465
X37.237 Y8.658
X37.175 Y8.850
X37.074 Y9.024
X36.939 Y9.174
X36.776 Y9.292
X36.592 Y9.374
X36.395 Y9.416
X36.194 Y9.416
X35.997 Y9.374
X35.813 Y9.292
X35.778 Y9.267
X32.769 Y9.267
X31.949 Y10.087
X32.039 Y10.187
X32.129 Y10.343
X32.184 Y10.514
X32.203 Y10.687
X32.203 Y12.173
X32.184 Y12.346
X32.129 Y12.517
X32.039 Y12.673
X31.918 Y12.807
X31.773 Y12.913
X31.608 Y12.986
X31.432 Y13.023
X31.252 Y13.023
G0 Z3.000
G0  X33.792 Y13.023
G0  Z3.000
G01 F400 Z0
G01 F400 Z-0.100
G01F400X33.616 Y12.986
X33.451 Y12.913
X33.305 Y12.807
X33.185 Y12.673
X33.095 Y12.517
X33.039 Y12.346
X33.021 Y12.173
X33.021 Y10.687
X33.039 Y10.514
X33.095 Y10.343
X33.185 Y10.187
X33.305 Y10.053
X33.451 Y9.947
X33.616 Y9.874
X33.792 Y9.837
X33.972 Y9.837
X34.148 Y9.874
X34.313 Y9.947
X34.458 Y10.053
X34.579 Y10.187
X34.669 Y10.343
X34.724 Y10.514
X34.742 Y10.687
X34.742 Y12.173
X34.724 Y12.346
X34.669 Y12.517
X34.579 Y12.673
X34.458 Y12.807
X34.313 Y12.913
X34.148 Y12.986
X33.972 Y13.023
X33.792 Y13.023
G0 Z3.000
G0  X26.172 Y13.023
G0  Z3.000
G01 F400 Z0
G01 F400 Z-0.100
G01F400X25.996 Y12.986
X25.831 Y12.913
X25.685 Y12.807
X25.565 Y12.673
X25.475 Y12.517
X25.419 Y12.346
X25.401 Y12.173
X25.401 Y10.687
X25.419 Y10.514
X25.475 Y10.343
X25.565 Y10.187
X25.685 Y10.053
X25.831 Y9.947
X25.996 Y9.874
X26.172 Y9.837
X26.352 Y9.837
X26.528 Y9.874
X26.693 Y9.947
X26.838 Y10.053
X26.959 Y10.187
X26.963 Y10.194
X27.154 Y10.004
X27.154 Y8.883
X27.161 Y8.811
X27.186 Y8.736
X27.225 Y8.667
X27.272 Y8.616
X28.551 Y7.337
X28.612 Y7.292
X28.685 Y7.260
X28.762 Y7.243
X29.300 Y7.243
X29.375 Y7.114
X29.495 Y6.980
X29.641 Y6.874
X29.806 Y6.801
X29.982 Y6.763
X30.162 Y6.763
X30.338 Y6.801
X30.503 Y6.874
X30.648 Y6.980
X30.769 Y7.114
X30.859 Y7.270
X30.914 Y7.441
X30.933 Y7.620
X30.914 Y7.799
X30.859 Y7.970
X30.769 Y8.126
X30.648 Y8.260
X30.503 Y8.366
X30.338 Y8.439
X30.162 Y8.477
X29.982 Y8.477
X29.806 Y8.439
X29.641 Y8.366
X29.495 Y8.260
X29.375 Y8.126
X29.300 Y7.997
X28.959 Y7.997
X27.910 Y9.046
X27.910 Y10.167
X27.902 Y10.239
X27.878 Y10.314
X27.838 Y10.383
X27.792 Y10.434
X27.123 Y11.104
X27.123 Y12.173
X27.104 Y12.346
X27.049 Y12.517
X26.959 Y12.673
X26.838 Y12.807
X26.693 Y12.913
X26.528 Y12.986
X26.352 Y13.023
X26.172 Y13.023
G0 Z3.000
G0  X36.332 Y13.023
G0  Z3.000
G01 F400 Z0
G01 F400 Z-0.100
G01F400X36.156 Y12.986
X35.991 Y12.913
X35.845 Y12.807
X35.725 Y12.673
X35.635 Y12.517
X35.579 Y12.346
X35.561 Y12.173
X35.561 Y10.687
X35.579 Y10.514
X35.635 Y10.343
X35.725 Y10.187
X35.845 Y10.053
X35.991 Y9.947
X36.156 Y9.874
X36.332 Y9.837
X36.512 Y9.837
X36.688 Y9.874
X36.852 Y9.947
X36.998 Y10.053
X37.119 Y10.187
X37.209 Y10.343
X37.264 Y10.514
X37.282 Y10.687
X37.282 Y12.173
X37.264 Y12.346
X37.209 Y12.517
X37.119 Y12.673
X36.998 Y12.807
X36.852 Y12.913
X36.688 Y12.986
X36.512 Y13.023
X36.332 Y13.023
G0 Z3.000
G0  X38.872 Y13.023
G0  Z3.000
G01 F400 Z0
G01 F400 Z-0.100
G01F400X38.696 Y12.986
X38.531 Y12.913
X38.385 Y12.807
X38.265 Y12.673
X38.175 Y12.517
X38.119 Y12.346
X38.101 Y12.173
X38.101 Y10.687
X38.119 Y10.514
X38.175 Y10.343
X38.265 Y10.187
X38.385 Y10.053
X38.531 Y9.947
X38.696 Y9.874
X38.872 Y9.837
X39.052 Y9.837
X39.228 Y9.874
X39.393 Y9.947
X39.538 Y10.053
X39.659 Y10.187
X39.749 Y10.343
X39.804 Y10.514
X39.823 Y10.687
X39.823 Y12.173
X39.804 Y12.346
X39.749 Y12.517
X39.659 Y12.673
X39.538 Y12.807
X39.393 Y12.913
X39.228 Y12.986
X39.052 Y13.023
X38.872 Y13.023
G0 Z3.000
G0  X23.632 Y13.023
G0  Z3.000
G01 F400 Z0
G01 F400 Z-0.100
G01F400X23.456 Y12.986
X23.291 Y12.913
X23.145 Y12.807
X23.025 Y12.673
X22.935 Y12.517
X22.879 Y12.346
X22.861 Y12.173
X22.861 Y10.687
X22.879 Y10.514
X22.935 Y10.343
X23.025 Y10.187
X23.145 Y10.053
X23.291 Y9.947
X23.456 Y9.874
X23.632 Y9.837
X23.812 Y9.837
X23.988 Y9.874
X24.152 Y9.947
X24.298 Y10.053
X24.419 Y10.187
X24.423 Y10.194
X24.614 Y10.004
X24.614 Y8.411
X24.431 Y8.364
X24.069 Y7.750
X24.248 Y7.059
X24.862 Y6.698
X25.553 Y6.876
X25.914 Y7.490
X25.736 Y8.181
X25.370 Y8.396
X25.370 Y10.167
X25.362 Y10.239
X25.338 Y10.314
X25.298 Y10.383
X25.252 Y10.434
X24.582 Y11.104
X24.582 Y12.173
X24.564 Y12.346
X24.509 Y12.517
X24.419 Y12.673
X24.298 Y12.807
X24.152 Y12.913
X23.988 Y12.986
X23.812 Y13.023
X23.632 Y13.023
G0 Z3.000
G0  X64.264 Y11.092
G0  Z3.000
G01 F400 Z0
G01 F400 Z-0.100
G01F400X64.072 Y11.052
X63.893 Y10.972
X63.734 Y10.857
X63.603 Y10.711
X63.505 Y10.541
X63.445 Y10.355
X63.424 Y10.160
X63.445 Y9.965
X63.505 Y9.779
X63.603 Y9.609
X63.734 Y9.463
X63.893 Y9.348
X64.072 Y9.268
X64.264 Y9.228
X64.460 Y9.228
X64.651 Y9.268
X64.831 Y9.348
X64.989 Y9.463
X65.120 Y9.609
X65.218 Y9.779
X65.279 Y9.965
X65.299 Y10.160
X65.279 Y10.355
X65.218 Y10.541
X65.120 Y10.711
X64.989 Y10.857
X64.831 Y10.972
X64.651 Y11.052
X64.460 Y11.092
X64.264 Y11.092
G0 Z3.000
G0  X6.168 Y10.442
G0  Z3.000
G01 F400 Z0
G01 F400 Z-0.100
G01F400X5.866 Y10.378
X5.584 Y10.252
X5.334 Y10.071
X5.128 Y9.841
X4.973 Y9.574
X4.878 Y9.280
X4.846 Y8.979
X4.846 Y6.261
X4.878 Y5.960
X4.973 Y5.667
X5.128 Y5.399
X5.334 Y5.170
X5.584 Y4.988
X5.866 Y4.862
X6.168 Y4.798
X6.477 Y4.798
X6.779 Y4.862
X7.062 Y4.988
X7.311 Y5.170
X7.518 Y5.399
X7.672 Y5.667
X7.768 Y5.960
X7.799 Y6.261
X7.799 Y8.979
X7.768 Y9.280
X7.672 Y9.574
X7.518 Y9.841
X7.311 Y10.071
X7.062 Y10.252
X6.779 Y10.378
X6.477 Y10.442
X6.168 Y10.442
G0 Z3.000
G0  X15.566 Y10.442
G0  Z3.000
G01 F400 Z0
G01 F400 Z-0.100
G01F400X15.264 Y10.378
X14.982 Y10.252
X14.732 Y10.071
X14.526 Y9.841
X14.371 Y9.574
X14.276 Y9.280
X14.244 Y8.979
X14.244 Y6.261
X14.276 Y5.960
X14.371 Y5.667
X14.526 Y5.399
X14.732 Y5.170
X14.982 Y4.988
X15.264 Y4.862
X15.566 Y4.798
X15.875 Y4.798
X16.177 Y4.862
X16.460 Y4.988
X16.709 Y5.170
X16.916 Y5.399
X17.070 Y5.667
X17.166 Y5.960
X17.197 Y6.261
X17.197 Y8.979
X17.166 Y9.280
X17.070 Y9.574
X16.916 Y9.841
X16.709 Y10.071
X16.460 Y10.252
X16.177 Y10.378
X15.875 Y10.442
X15.566 Y10.442
G0 Z3.000
G0  X10.867 Y10.442
G0  Z3.000
G01 F400 Z0
G01 F400 Z-0.100
G01F400X10.565 Y10.378
X10.283 Y10.252
X10.033 Y10.071
X9.827 Y9.841
X9.672 Y9.574
X9.577 Y9.280
X9.545 Y8.979
X9.545 Y6.261
X9.577 Y5.960
X9.672 Y5.667
X9.827 Y5.399
X10.033 Y5.170
X10.283 Y4.988
X10.565 Y4.862
X10.867 Y4.798
X11.176 Y4.798
X11.478 Y4.862
X11.761 Y4.988
X12.010 Y5.170
X12.217 Y5.399
X12.371 Y5.667
X12.467 Y5.960
X12.498 Y6.261
X12.498 Y8.979
X12.467 Y9.280
X12.371 Y9.574
X12.217 Y9.841
X12.010 Y10.071
X11.761 Y10.252
X11.478 Y10.378
X11.176 Y10.442
X10.867 Y10.442
G0 Z3.000
G0  X4.609 Y38.548
G0  Z3.000
G01 F400 Z0
G01 F400 Z-0.100
G01F400X4.485 Y38.522
X4.370 Y38.470
X4.276 Y38.402
X2.822 Y36.948
X2.756 Y36.875
X2.693 Y36.766
X2.654 Y36.645
X2.643 Y36.538
X2.643 Y30.620
X2.654 Y30.512
X2.693 Y30.392
X2.756 Y30.283
X2.822 Y30.210
X4.276 Y28.756
X4.370 Y28.688
X4.485 Y28.636
X4.609 Y28.610
X5.242 Y28.610
X5.496 Y28.237
X5.472 Y28.227
X5.184 Y28.017
X4.946 Y27.753
X4.768 Y27.445
X4.658 Y27.107
X4.623 Y26.771
X4.623 Y24.029
X4.658 Y23.694
X4.768 Y23.355
X4.946 Y23.047
X5.184 Y22.783
X5.472 Y22.574
X5.797 Y22.429
X6.145 Y22.355
X6.501 Y22.355
X6.849 Y22.429
X7.174 Y22.574
X7.462 Y22.783
X7.700 Y23.047
X7.878 Y23.355
X7.988 Y23.694
X8.023 Y24.029
X8.023 Y26.771
X7.988 Y27.107
X7.878 Y27.445
X7.700 Y27.753
X7.462 Y28.017
X7.174 Y28.227
X6.866 Y28.364
X6.858 Y28.366
X6.823 Y28.427
X6.040 Y29.574
X5.965 Y29.658
X5.862 Y29.733
X5.747 Y29.784
X5.624 Y29.810
X4.922 Y29.810
X3.846 Y30.886
X3.846 Y33.308
X3.992 Y32.857
X4.361 Y32.218
X4.854 Y31.671
X5.450 Y31.238
X6.123 Y30.938
X6.843 Y30.785
X7.580 Y30.785
X8.301 Y30.938
X8.974 Y31.238
X9.570 Y31.671
X10.063 Y32.218
X10.431 Y32.857
X10.659 Y33.557
X10.673 Y33.690
X11.725 Y33.690
X11.501 Y33.310
X11.900 Y31.768
X13.272 Y30.960
X14.464 Y31.268
X18.040 Y27.691
X18.040 Y24.112
X18.052 Y24.005
X18.060 Y23.978
X18.060 Y17.762
X18.072 Y17.655
X18.111 Y17.535
X18.174 Y17.425
X18.240 Y17.352
X21.612 Y13.980
X20.821 Y13.188
X20.639 Y13.107
X20.455 Y12.974
X20.303 Y12.805
X20.190 Y12.608
X20.120 Y12.392
X20.098 Y12.185
X20.098 Y10.675
X20.120 Y10.468
X20.190 Y10.252
X20.303 Y10.055
X20.455 Y9.886
X20.639 Y9.753
X20.846 Y9.661
X21.068 Y9.613
X21.295 Y9.613
X21.517 Y9.661
X21.725 Y9.753
X21.909 Y9.886
X22.060 Y10.055
X22.174 Y10.252
X22.244 Y10.468
X22.266 Y10.675
X22.266 Y12.185
X22.244 Y12.392
X22.174 Y12.608
X22.088 Y12.757
X22.702 Y13.370
X27.282 Y13.370
X27.895 Y12.757
X27.810 Y12.608
X27.739 Y12.392
X27.718 Y12.185
X27.718 Y10.824
X27.346 Y11.196
X27.346 Y12.185
X27.324 Y12.392
X27.254 Y12.608
X27.140 Y12.805
X26.989 Y12.974
X26.805 Y13.107
X26.597 Y13.199
X26.375 Y13.247
X26.148 Y13.247
X25.926 Y13.199
X25.719 Y13.107
X25.535 Y12.974
X25.383 Y12.805
X25.270 Y12.608
X25.200 Y12.392
X25.178 Y12.185
X25.178 Y10.824
X24.806 Y11.196
X24.806 Y12.185
X24.784 Y12.392
X24.714 Y12.608
X24.600 Y12.805
X24.449 Y12.974
X24.265 Y13.107
X24.057 Y13.199
X23.835 Y13.247
X23.608 Y13.247
X23.386 Y13.199
X23.179 Y13.107
X22.995 Y12.974
X22.843 Y12.805
X22.730 Y12.608
X22.660 Y12.392
X22.638 Y12.185
X22.638 Y10.675
X22.660 Y10.468
X22.730 Y10.252
X22.843 Y10.055
X22.995 Y9.886
X23.179 Y9.753
X23.386 Y9.661
X23.608 Y9.613
X23.835 Y9.613
X24.057 Y9.661
X24.265 Y9.753
X24.390 Y9.844
X24.390 Y8.584
X24.286 Y8.557
X23.830 Y7.783
X24.055 Y6.914
X24.829 Y6.458
X25.698 Y6.683
X26.154 Y7.457
X25.929 Y8.326
X25.593 Y8.524
X25.593 Y9.844
X25.719 Y9.753
X25.926 Y9.661
X26.148 Y9.613
X26.375 Y9.613
X26.597 Y9.661
X26.805 Y9.753
X26.930 Y9.844
X26.930 Y8.872
X26.942 Y8.764
X26.981 Y8.645
X27.044 Y8.536
X27.110 Y8.462
X28.405 Y7.166
X28.500 Y7.098
X28.615 Y7.046
X28.739 Y7.020
X29.171 Y7.020
X29.193 Y6.982
X29.345 Y6.813
X29.529 Y6.679
X29.736 Y6.587
X29.958 Y6.540
X30.185 Y6.540
X30.407 Y6.587
X30.615 Y6.679
X30.799 Y6.813
X30.950 Y6.982
X31.064 Y7.178
X31.134 Y7.394
X31.158 Y7.620
X31.134 Y7.846
X31.064 Y8.062
X30.950 Y8.258
X30.799 Y8.427
X30.615 Y8.561
X30.407 Y8.653
X30.185 Y8.700
X29.958 Y8.700
X29.736 Y8.653
X29.529 Y8.561
X29.345 Y8.427
X29.193 Y8.258
X29.171 Y8.220
X29.052 Y8.220
X28.133 Y9.139
X28.133 Y9.844
X28.259 Y9.753
X28.466 Y9.661
X28.688 Y9.613
X28.915 Y9.613
X29.137 Y9.661
X29.345 Y9.753
X29.529 Y9.886
X29.680 Y10.055
X29.794 Y10.252
X29.864 Y10.468
X29.886 Y10.675
X29.886 Y12.185
X29.864 Y12.392
X29.794 Y12.608
X29.708 Y12.757
X30.322 Y13.370
X39.982 Y13.370
X41.665 Y11.687
X41.610 Y11.593
X41.787 Y10.910
X40.267 Y8.709
X40.251 Y8.703
X40.250 Y8.705
X40.174 Y8.941
X40.050 Y9.156
X39.884 Y9.341
X39.683 Y9.487
X39.456 Y9.588
X39.213 Y9.639
X39.197 Y9.639
X39.297 Y9.661
X39.505 Y9.753
X39.689 Y9.886
X39.840 Y10.055
X39.954 Y10.252
X40.024 Y10.468
X40.046 Y10.675
X40.046 Y12.185
X40.024 Y12.392
X39.954 Y12.608
X39.840 Y12.805
X39.689 Y12.974
X39.505 Y13.107
X39.297 Y13.199
X39.075 Y13.247
X38.848 Y13.247
X38.626 Y13.199
X38.419 Y13.107
X38.235 Y12.974
X38.083 Y12.805
X37.970 Y12.608
X37.900 Y12.392
X37.878 Y12.185
X37.878 Y10.675
X37.900 Y10.468
X37.970 Y10.252
X38.083 Y10.055
X38.235 Y9.886
X38.419 Y9.753
X38.626 Y9.661
X38.845 Y9.614
X38.722 Y9.588
X38.495 Y9.487
X38.294 Y9.341
X38.128 Y9.156
X38.004 Y8.941
X37.927 Y8.705
X37.903 Y8.476
X37.903 Y6.764
X37.927 Y6.535
X38.004 Y6.299
X38.128 Y6.084
X38.294 Y5.899
X38.495 Y5.753
X38.722 Y5.652
X38.950 Y5.604
X36.434 Y5.604
X36.662 Y5.652
X36.889 Y5.753
X37.090 Y5.899
X37.256 Y6.084
X37.380 Y6.299
X37.456 Y6.535
X37.480 Y6.764
X37.480 Y8.476
X37.456 Y8.705
X37.380 Y8.941
X37.256 Y9.156
X37.090 Y9.341
X36.889 Y9.487
X36.662 Y9.588
X36.538 Y9.614
X36.757 Y9.661
X36.965 Y9.753
X37.148 Y9.886
X37.300 Y10.055
X37.414 Y10.252
X37.484 Y10.468
X37.506 Y10.675
X37.506 Y12.185
X37.484 Y12.392
X37.414 Y12.608
X37.300 Y12.805
X37.148 Y12.974
X36.965 Y13.107
X36.757 Y13.199
X36.535 Y13.247
X36.308 Y13.247
X36.086 Y13.199
X35.879 Y13.107
X35.695 Y12.974
X35.543 Y12.805
X35.430 Y12.608
X35.360 Y12.392
X35.338 Y12.185
X35.338 Y10.675
X35.360 Y10.468
X35.430 Y10.252
X35.543 Y10.055
X35.695 Y9.886
X35.879 Y9.753
X36.086 Y9.661
X36.186 Y9.639
X36.171 Y9.639
X35.928 Y9.588
X35.709 Y9.490
X32.862 Y9.490
X32.248 Y10.104
X32.334 Y10.252
X32.404 Y10.468
X32.426 Y10.675
X32.426 Y12.185
X32.404 Y12.392
X32.334 Y12.608
X32.220 Y12.805
X32.069 Y12.974
X31.885 Y13.107
X31.677 Y13.199
X31.455 Y13.247
X31.228 Y13.247
X31.006 Y13.199
X30.799 Y13.107
X30.615 Y12.974
X30.463 Y12.805
X30.350 Y12.608
X30.280 Y12.392
X30.258 Y12.185
X30.258 Y10.675
X30.280 Y10.468
X30.350 Y10.252
X30.463 Y10.055
X30.615 Y9.886
X30.799 Y9.753
X30.979 Y9.673
X32.215 Y8.436
X32.310 Y8.367
X32.425 Y8.316
X32.548 Y8.290
X35.109 Y8.286
X35.109 Y6.764
X35.133 Y6.535
X35.210 Y6.299
X35.334 Y6.084
X35.500 Y5.899
X35.701 Y5.753
X35.928 Y5.652
X36.156 Y5.604
X21.508 Y5.604
X19.243 Y7.869
X19.243 Y11.448
X19.232 Y11.556
X19.193 Y11.676
X19.130 Y11.785
X19.064 Y11.858
X16.940 Y13.982
X17.098 Y14.157
X17.276 Y14.465
X17.386 Y14.804
X17.421 Y15.139
X17.421 Y17.881
X17.386 Y18.216
X17.276 Y18.555
X17.098 Y18.863
X16.860 Y19.127
X16.572 Y19.337
X16.247 Y19.481
X15.899 Y19.555
X15.543 Y19.555
X15.195 Y19.481
X14.870 Y19.337
X14.582 Y19.127
X14.344 Y18.863
X14.166 Y18.555
X14.056 Y18.216
X14.021 Y17.881
X14.021 Y15.139
X14.056 Y14.804
X14.166 Y14.465
X14.344 Y14.157
X14.582 Y13.893
X14.870 Y13.684
X15.195 Y13.539
X15.543 Y13.465
X15.757 Y13.465
X18.040 Y11.181
X18.040 Y7.602
X18.052 Y7.495
X18.091 Y7.375
X18.154 Y7.266
X18.220 Y7.192
X20.862 Y4.550
X20.956 Y4.481
X21.072 Y4.430
X21.165 Y4.410
X4.922 Y4.410
X4.023 Y5.309
X4.023 Y13.361
X4.900 Y14.237
X4.946 Y14.157
X5.184 Y13.893
X5.472 Y13.684
X5.797 Y13.539
X6.145 Y13.465
X6.501 Y13.465
X6.849 Y13.539
X7.174 Y13.684
X7.462 Y13.893
X7.700 Y14.157
X7.878 Y14.465
X7.988 Y14.804
X8.023 Y15.139
X8.023 Y17.881
X7.988 Y18.216
X7.878 Y18.555
X7.700 Y18.863
X7.462 Y19.127
X7.174 Y19.337
X6.849 Y19.481
X6.501 Y19.555
X6.145 Y19.555
X5.797 Y19.481
X5.472 Y19.337
X5.184 Y19.127
X4.946 Y18.863
X4.768 Y18.555
X4.658 Y18.216
X4.623 Y17.881
X4.623 Y15.660
X3.000 Y14.037
X2.934 Y13.964
X2.871 Y13.855
X2.832 Y13.735
X2.820 Y13.627
X2.820 Y5.042
X2.832 Y4.934
X2.871 Y4.815
X2.933 Y4.705
X3.000 Y4.632
X4.276 Y3.356
X4.370 Y3.288
X4.485 Y3.236
X4.609 Y3.210
X52.031 Y3.210
X52.053 Y3.172
X52.205 Y3.003
X52.389 Y2.869
X52.596 Y2.777
X52.818 Y2.730
X53.045 Y2.730
X53.267 Y2.777
X53.475 Y2.869
X53.659 Y3.003
X53.810 Y3.172
X53.924 Y3.368
X53.994 Y3.584
X54.018 Y3.810
X53.994 Y4.036
X53.968 Y4.118
X54.602 Y3.483
X54.697 Y3.415
X54.812 Y3.363
X54.935 Y3.337
X57.014 Y3.337
X57.075 Y3.104
X57.849 Y2.648
X58.718 Y2.873
X58.917 Y3.210
X66.474 Y3.210
X66.591 Y3.008
X67.084 Y2.461
X67.680 Y2.028
X68.353 Y1.728
X69.073 Y1.575
X69.810 Y1.575
X70.531 Y1.728
X71.204 Y2.028
X71.800 Y2.461
X72.293 Y3.008
X72.662 Y3.647
X72.889 Y4.347
X72.966 Y5.080
X72.889 Y5.813
X72.662 Y6.514
X72.293 Y7.152
X71.800 Y7.699
X71.204 Y8.132
X70.531 Y8.432
X69.810 Y8.585
X69.073 Y8.585
X68.353 Y8.432
X67.680 Y8.132
X67.503 Y8.004
X67.503 Y9.168
X67.680 Y9.296
X67.842 Y9.477
X67.963 Y9.687
X68.039 Y9.918
X68.064 Y10.160
X68.039 Y10.402
X67.963 Y10.633
X67.842 Y10.843
X67.680 Y11.024
X67.483 Y11.167
X67.261 Y11.265
X67.023 Y11.316
X66.780 Y11.316
X66.543 Y11.265
X66.321 Y11.167
X66.124 Y11.024
X65.962 Y10.843
X65.840 Y10.633
X65.765 Y10.402
X65.740 Y10.160
X65.765 Y9.918
X65.840 Y9.687
X65.962 Y9.477
X66.124 Y9.296
X66.300 Y9.168
X66.300 Y6.649
X66.222 Y6.514
X65.994 Y5.813
X65.917 Y5.080
X65.988 Y4.410
X58.976 Y4.410
X58.949 Y4.516
X58.175 Y4.972
X57.306 Y4.747
X57.182 Y4.537
X55.248 Y4.537
X54.483 Y5.303
X54.908 Y5.413
X55.107 Y5.750
X58.075 Y5.750
X58.198 Y5.776
X58.314 Y5.828
X58.408 Y5.896
X61.548 Y9.036
X61.700 Y9.004
X61.943 Y9.004
X62.181 Y9.055
X62.403 Y9.154
X62.600 Y9.296
X62.762 Y9.477
X62.884 Y9.687
X62.959 Y9.918
X62.984 Y10.160
X62.959 Y10.402
X62.884 Y10.633
X62.762 Y10.843
X62.600 Y11.024
X62.403 Y11.167
X62.181 Y11.265
X61.943 Y11.316
X61.700 Y11.316
X61.463 Y11.265
X61.241 Y11.167
X61.044 Y11.024
X60.882 Y10.843
X60.760 Y10.633
X60.685 Y10.402
X60.660 Y10.160
X60.685 Y9.918
X60.696 Y9.884
X57.762 Y6.950
X55.166 Y6.950
X55.139 Y7.056
X54.365 Y7.512
X53.496 Y7.287
X53.126 Y6.660
X52.982 Y6.804
X52.887 Y6.873
X52.772 Y6.924
X52.648 Y6.950
X50.993 Y6.950
X50.993 Y10.466
X51.098 Y10.493
X51.554 Y11.267
X51.329 Y12.136
X50.555 Y12.592
X49.686 Y12.367
X49.487 Y12.030
X47.546 Y12.030
X47.519 Y12.136
X46.745 Y12.592
X45.876 Y12.367
X45.677 Y12.030
X43.736 Y12.030
X43.709 Y12.136
X42.935 Y12.592
X42.558 Y12.494
X40.628 Y14.424
X40.534 Y14.493
X40.418 Y14.544
X40.295 Y14.570
X30.009 Y14.570
X29.885 Y14.544
X29.770 Y14.493
X29.676 Y14.424
X28.802 Y13.550
X27.928 Y14.424
X27.834 Y14.493
X27.718 Y14.544
X27.595 Y14.570
X22.722 Y14.570
X19.263 Y18.029
X19.263 Y24.128
X19.252 Y24.236
X19.243 Y24.262
X19.243 Y27.958
X19.232 Y28.066
X19.193 Y28.186
X19.130 Y28.295
X19.064 Y28.368
X15.281 Y32.151
X15.622 Y32.730
X15.224 Y34.272
X13.851 Y35.080
X12.652 Y34.770
X12.594 Y34.813
X12.478 Y34.864
X12.355 Y34.890
X10.673 Y34.890
X10.659 Y35.023
X10.431 Y35.724
X10.063 Y36.362
X9.570 Y36.909
X8.974 Y37.342
X8.962 Y37.348
X18.544 Y37.348
X20.580 Y35.311
X20.580 Y33.202
X20.303 Y34.272
X18.931 Y35.080
X17.390 Y34.682
X16.581 Y33.309
X16.980 Y31.768
X18.040 Y31.143
X18.040 Y30.462
X18.052 Y30.355
X18.091 Y30.235
X18.154 Y30.126
X18.220 Y30.052
X22.056 Y26.216
X22.150 Y26.148
X22.265 Y26.096
X22.389 Y26.070
X29.132 Y26.070
X29.246 Y25.956
X29.200 Y25.976
X28.937 Y26.032
X28.667 Y26.032
X28.403 Y25.976
X28.157 Y25.867
X27.939 Y25.708
X27.759 Y25.508
X27.624 Y25.274
X27.552 Y25.052
X27.480 Y25.274
X27.345 Y25.508
X27.164 Y25.708
X26.946 Y25.867
X26.700 Y25.976
X26.437 Y26.032
X26.167 Y26.032
X25.903 Y25.976
X25.657 Y25.867
X25.439 Y25.708
X25.259 Y25.508
X25.124 Y25.274
X25.041 Y25.018
X25.013 Y24.750
X25.041 Y24.482
X25.124 Y24.226
X25.259 Y23.992
X25.439 Y23.792
X25.657 Y23.634
X25.903 Y23.524
X26.167 Y23.468
X26.437 Y23.468
X26.700 Y23.524
X26.946 Y23.634
X27.164 Y23.792
X27.345 Y23.992
X27.480 Y24.226
X27.552 Y24.448
X27.624 Y24.226
X27.759 Y23.992
X27.939 Y23.792
X28.157 Y23.634
X28.200 Y23.614
X28.200 Y22.842
X28.212 Y22.735
X28.251 Y22.615
X28.314 Y22.506
X28.380 Y22.432
X29.676 Y21.136
X29.770 Y21.068
X29.885 Y21.016
X30.009 Y20.990
X37.442 Y20.990
X38.055 Y20.377
X37.970 Y20.228
X37.900 Y20.012
X37.878 Y19.805
X37.878 Y18.295
X37.900 Y18.088
X37.970 Y17.872
X38.083 Y17.675
X38.235 Y17.506
X38.419 Y17.373
X38.626 Y17.281
X38.848 Y17.233
X39.075 Y17.233
X39.297 Y17.281
X39.505 Y17.373
X39.689 Y17.506
X39.840 Y17.675
X39.954 Y17.872
X40.024 Y18.088
X40.046 Y18.295
X40.046 Y19.805
X40.024 Y20.012
X39.954 Y20.228
X39.840 Y20.425
X39.689 Y20.594
X39.505 Y20.727
X39.324 Y20.807
X38.542 Y21.590
X39.212 Y22.260
X41.908 Y22.260
X41.610 Y21.753
X41.835 Y20.884
X42.170 Y20.686
X42.170 Y19.299
X39.982 Y17.110
X27.782 Y17.110
X27.168 Y17.724
X27.254 Y17.872
X27.324 Y18.088
X27.346 Y18.295
X27.346 Y19.805
X27.324 Y20.012
X27.254 Y20.228
X27.140 Y20.425
X26.989 Y20.594
X26.805 Y20.727
X26.597 Y20.819
X26.375 Y20.867
X26.148 Y20.867
X25.926 Y20.819
X25.719 Y20.727
X25.535 Y20.594
X25.383 Y20.425
X25.270 Y20.228
X25.200 Y20.012
X25.178 Y19.805
X25.178 Y18.295
X25.200 Y18.088
X25.270 Y17.872
X25.383 Y17.675
X25.535 Y17.506
X25.719 Y17.373
X25.899 Y17.293
X27.136 Y16.056
X27.230 Y15.988
X27.345 Y15.936
X27.469 Y15.910
X40.295 Y15.910
X40.418 Y15.936
X40.534 Y15.988
X40.628 Y16.056
X43.194 Y18.622
X43.260 Y18.695
X43.323 Y18.804
X43.362 Y18.925
X43.373 Y19.032
X43.373 Y20.626
X43.478 Y20.653
X43.934 Y21.427
X43.718 Y22.260
X45.718 Y22.260
X45.420 Y21.753
X45.645 Y20.884
X45.980 Y20.686
X45.980 Y19.299
X42.522 Y15.840
X23.972 Y15.840
X22.088 Y17.724
X22.174 Y17.872
X22.244 Y18.088
X22.266 Y18.295
X22.266 Y19.805
X22.244 Y20.012
X22.174 Y20.228
X22.060 Y20.425
X21.909 Y20.594
X21.725 Y20.727
X21.517 Y20.819
X21.295 Y20.867
X21.068 Y20.867
X20.846 Y20.819
X20.639 Y20.727
X20.455 Y20.594
X20.303 Y20.425
X20.190 Y20.228
X20.120 Y20.012
X20.098 Y19.805
X20.098 Y18.295
X20.120 Y18.088
X20.190 Y17.872
X20.303 Y17.675
X20.455 Y17.506
X20.639 Y17.373
X20.819 Y17.293
X23.326 Y14.786
X23.420 Y14.718
X23.535 Y14.666
X23.659 Y14.640
X42.835 Y14.640
X42.958 Y14.666
X43.074 Y14.718
X43.168 Y14.786
X46.582 Y18.200
X48.726 Y16.056
X48.820 Y15.988
X48.935 Y15.936
X49.059 Y15.910
X49.491 Y15.910
X49.513 Y15.872
X49.665 Y15.703
X49.849 Y15.570
X50.056 Y15.477
X50.278 Y15.430
X50.505 Y15.430
X50.727 Y15.477
X50.935 Y15.570
X51.119 Y15.703
X51.270 Y15.872
X51.293 Y15.910
X53.237 Y15.910
X53.265 Y15.804
X54.038 Y15.348
X54.908 Y15.573
X55.364 Y16.347
X55.139 Y17.216
X54.365 Y17.672
X53.496 Y17.447
X53.297 Y17.110
X51.293 Y17.110
X51.270 Y17.148
X51.119 Y17.317
X50.935 Y17.451
X50.727 Y17.543
X50.505 Y17.590
X50.278 Y17.590
X50.056 Y17.543
X49.849 Y17.451
X49.665 Y17.317
X49.513 Y17.148
X49.491 Y17.110
X49.372 Y17.110
X47.183 Y19.299
X47.183 Y20.626
X47.288 Y20.653
X47.744 Y21.427
X47.528 Y22.260
X47.602 Y22.260
X48.520 Y21.341
X48.520 Y20.302
X48.532 Y20.195
X48.571 Y20.075
X48.634 Y19.966
X48.700 Y19.892
X49.995 Y18.596
X50.090 Y18.527
X50.205 Y18.476
X50.329 Y18.450
X53.952 Y18.450
X56.140 Y16.261
X56.140 Y13.952
X56.152 Y13.845
X56.191 Y13.725
X56.254 Y13.616
X56.320 Y13.542
X57.616 Y12.246
X57.710 Y12.178
X57.825 Y12.126
X57.949 Y12.100
X58.680 Y12.100
X58.680 Y11.152
X58.504 Y11.024
X58.342 Y10.843
X58.220 Y10.633
X58.145 Y10.402
X58.120 Y10.160
X58.145 Y9.918
X58.220 Y9.687
X58.342 Y9.477
X58.504 Y9.296
X58.701 Y9.154
X58.923 Y9.055
X59.160 Y9.004
X59.403 Y9.004
X59.641 Y9.055
X59.863 Y9.154
X60.059 Y9.296
X60.222 Y9.477
X60.344 Y9.687
X60.419 Y9.918
X60.444 Y10.160
X60.419 Y10.402
X60.344 Y10.633
X60.222 Y10.843
X60.059 Y11.024
X59.883 Y11.152
X59.883 Y12.100
X61.885 Y12.100
X62.008 Y12.126
X62.123 Y12.178
X62.218 Y12.246
X66.628 Y16.656
X66.780 Y16.624
X67.023 Y16.624
X67.261 Y16.675
X67.483 Y16.774
X67.680 Y16.916
X67.842 Y17.097
X67.963 Y17.307
X68.039 Y17.538
X68.064 Y17.780
X68.039 Y18.022
X67.963 Y18.253
X67.842 Y18.463
X67.680 Y18.644
X67.503 Y18.772
X67.503 Y23.614
X67.546 Y23.634
X67.764 Y23.792
X67.945 Y23.992
X68.080 Y24.226
X68.152 Y24.448
X68.224 Y24.226
X68.359 Y23.992
X68.539 Y23.792
X68.757 Y23.634
X69.003 Y23.524
X69.267 Y23.468
X69.537 Y23.468
X69.800 Y23.524
X70.046 Y23.634
X70.264 Y23.792
X70.445 Y23.992
X70.580 Y24.226
X70.663 Y24.482
X70.691 Y24.750
X70.663 Y25.018
X70.580 Y25.274
X70.445 Y25.508
X70.264 Y25.708
X70.046 Y25.867
X69.800 Y25.976
X69.537 Y26.032
X69.267 Y26.032
X69.003 Y25.976
X68.757 Y25.867
X68.539 Y25.708
X68.359 Y25.508
X68.224 Y25.274
X68.152 Y25.052
X68.080 Y25.274
X67.945 Y25.508
X67.764 Y25.708
X67.546 Y25.867
X67.300 Y25.976
X67.037 Y26.032
X66.767 Y26.032
X66.503 Y25.976
X66.257 Y25.867
X66.039 Y25.708
X65.859 Y25.508
X65.724 Y25.274
X65.652 Y25.052
X65.580 Y25.274
X65.445 Y25.508
X65.264 Y25.708
X65.046 Y25.867
X64.800 Y25.976
X64.537 Y26.032
X64.267 Y26.032
X64.003 Y25.976
X63.757 Y25.867
X63.539 Y25.708
X63.359 Y25.508
X63.224 Y25.274
X63.141 Y25.018
X63.113 Y24.750
X63.141 Y24.482
X63.224 Y24.226
X63.359 Y23.992
X63.539 Y23.792
X63.757 Y23.634
X63.760 Y23.632
X63.760 Y18.772
X63.584 Y18.644
X63.422 Y18.463
X63.300 Y18.253
X63.225 Y18.022
X63.200 Y17.780
X63.225 Y17.538
X63.236 Y17.504
X61.572 Y15.840
X59.532 Y15.840
X58.613 Y16.759
X58.613 Y16.837
X58.701 Y16.774
X58.923 Y16.675
X59.160 Y16.624
X59.403 Y16.624
X59.641 Y16.675
X59.863 Y16.774
X60.059 Y16.916
X60.222 Y17.097
X60.344 Y17.307
X60.419 Y17.538
X60.444 Y17.780
X60.419 Y18.022
X60.344 Y18.253
X60.222 Y18.463
X60.059 Y18.644
X59.863 Y18.787
X59.641 Y18.885
X59.403 Y18.936
X59.160 Y18.936
X58.923 Y18.885
X58.701 Y18.787
X58.504 Y18.644
X58.342 Y18.463
X58.282 Y18.360
X54.803 Y21.838
X54.803 Y23.614
X54.846 Y23.634
X55.064 Y23.792
X55.245 Y23.992
X55.380 Y24.226
X55.452 Y24.448
X55.524 Y24.226
X55.659 Y23.992
X55.839 Y23.792
X56.057 Y23.634
X56.100 Y23.614
X56.100 Y22.882
X56.112 Y22.774
X56.151 Y22.655
X56.214 Y22.546
X56.280 Y22.472
X60.696 Y18.056
X60.685 Y18.022
X60.660 Y17.780
X60.685 Y17.538
X60.760 Y17.307
X60.882 Y17.097
X61.044 Y16.916
X61.241 Y16.774
X61.463 Y16.675
X61.700 Y16.624
X61.943 Y16.624
X62.181 Y16.675
X62.403 Y16.774
X62.600 Y16.916
X62.762 Y17.097
X62.884 Y17.307
X62.959 Y17.538
X62.984 Y17.780
X62.959 Y18.022
X62.884 Y18.253
X62.762 Y18.463
X62.600 Y18.644
X62.403 Y18.787
X62.181 Y18.885
X61.943 Y18.936
X61.700 Y18.936
X61.548 Y18.904
X57.303 Y23.149
X57.303 Y23.614
X57.346 Y23.634
X57.564 Y23.792
X57.745 Y23.992
X57.880 Y24.226
X57.963 Y24.482
X57.991 Y24.750
X57.963 Y25.018
X57.880 Y25.274
X57.745 Y25.508
X57.564 Y25.708
X57.346 Y25.867
X57.100 Y25.976
X56.837 Y26.032
X56.567 Y26.032
X56.303 Y25.976
X56.057 Y25.867
X55.839 Y25.708
X55.659 Y25.508
X55.524 Y25.274
X55.452 Y25.052
X55.380 Y25.274
X55.245 Y25.508
X55.064 Y25.708
X54.846 Y25.867
X54.600 Y25.976
X54.337 Y26.032
X54.067 Y26.032
X53.803 Y25.976
X53.557 Y25.867
X53.339 Y25.708
X53.159 Y25.508
X53.024 Y25.274
X52.952 Y25.052
X52.880 Y25.274
X52.745 Y25.508
X52.564 Y25.708
X52.346 Y25.867
X52.100 Y25.976
X51.837 Y26.032
X51.567 Y26.032
X51.303 Y25.976
X51.057 Y25.867
X50.839 Y25.708
X50.659 Y25.508
X50.524 Y25.274
X50.441 Y25.018
X50.413 Y24.750
X50.441 Y24.482
X50.524 Y24.226
X50.659 Y23.992
X50.839 Y23.792
X51.057 Y23.634
X51.303 Y23.524
X51.567 Y23.468
X51.837 Y23.468
X52.100 Y23.524
X52.346 Y23.634
X52.564 Y23.792
X52.745 Y23.992
X52.880 Y24.226
X52.952 Y24.448
X53.024 Y24.226
X53.159 Y23.992
X53.339 Y23.792
X53.557 Y23.634
X53.600 Y23.614
X53.600 Y21.572
X53.612 Y21.465
X53.651 Y21.345
X53.714 Y21.236
X53.780 Y21.162
X57.410 Y17.531
X57.410 Y16.492
X57.422 Y16.384
X57.461 Y16.265
X57.524 Y16.155
X57.590 Y16.082
X58.886 Y14.786
X58.980 Y14.718
X59.095 Y14.666
X59.219 Y14.640
X61.885 Y14.640
X62.008 Y14.666
X62.123 Y14.718
X62.218 Y14.786
X64.088 Y16.656
X64.240 Y16.624
X64.483 Y16.624
X64.721 Y16.675
X64.943 Y16.774
X65.139 Y16.916
X65.302 Y17.097
X65.424 Y17.307
X65.499 Y17.538
X65.524 Y17.780
X65.499 Y18.022
X65.424 Y18.253
X65.302 Y18.463
X65.139 Y18.644
X64.963 Y18.772
X64.963 Y23.597
X65.046 Y23.634
X65.264 Y23.792
X65.445 Y23.992
X65.580 Y24.226
X65.652 Y24.448
X65.724 Y24.226
X65.859 Y23.992
X66.039 Y23.792
X66.257 Y23.634
X66.300 Y23.614
X66.300 Y18.772
X66.124 Y18.644
X65.962 Y18.463
X65.840 Y18.253
X65.765 Y18.022
X65.740 Y17.780
X65.765 Y17.538
X65.776 Y17.504
X61.572 Y13.300
X58.262 Y13.300
X57.343 Y14.219
X57.343 Y16.528
X57.332 Y16.636
X57.293 Y16.756
X57.230 Y16.865
X57.164 Y16.938
X54.598 Y19.504
X54.504 Y19.573
X54.388 Y19.624
X54.265 Y19.650
X50.642 Y19.650
X49.723 Y20.569
X49.723 Y21.608
X49.712 Y21.716
X49.673 Y21.836
X49.610 Y21.945
X49.544 Y22.018
X48.248 Y23.314
X48.154 Y23.383
X48.038 Y23.434
X47.915 Y23.460
X38.899 Y23.460
X38.775 Y23.434
X38.660 Y23.383
X38.566 Y23.314
X37.442 Y22.190
X30.322 Y22.190
X29.403 Y23.109
X29.403 Y23.614
X29.446 Y23.634
X29.664 Y23.792
X29.845 Y23.992
X29.980 Y24.226
X30.052 Y24.448
X30.124 Y24.226
X30.259 Y23.992
X30.439 Y23.792
X30.657 Y23.634
X30.903 Y23.524
X31.167 Y23.468
X31.437 Y23.468
X31.700 Y23.524
X31.946 Y23.634
X32.164 Y23.792
X32.345 Y23.992
X32.480 Y24.226
X32.563 Y24.482
X32.591 Y24.750
X32.563 Y25.018
X32.480 Y25.274
X32.345 Y25.508
X32.164 Y25.708
X31.946 Y25.867
X31.700 Y25.976
X31.437 Y26.032
X31.167 Y26.032
X30.922 Y25.980
X29.778 Y27.124
X29.684 Y27.193
X29.568 Y27.244
X29.445 Y27.270
X22.702 Y27.270
X22.632 Y27.340
X38.062 Y27.340
X39.446 Y25.956
X39.400 Y25.976
X39.137 Y26.032
X38.867 Y26.032
X38.603 Y25.976
X38.357 Y25.867
X38.139 Y25.708
X37.959 Y25.508
X37.824 Y25.274
X37.741 Y25.018
X37.713 Y24.750
X37.741 Y24.482
X37.824 Y24.226
X37.959 Y23.992
X38.139 Y23.792
X38.357 Y23.634
X38.603 Y23.524
X38.867 Y23.468
X39.137 Y23.468
X39.400 Y23.524
X39.646 Y23.634
X39.864 Y23.792
X40.045 Y23.992
X40.180 Y24.226
X40.252 Y24.448
X40.324 Y24.226
X40.459 Y23.992
X40.639 Y23.792
X40.857 Y23.634
X41.103 Y23.524
X41.367 Y23.468
X41.637 Y23.468
X41.900 Y23.524
X42.146 Y23.634
X42.364 Y23.792
X42.545 Y23.992
X42.680 Y24.226
X42.752 Y24.448
X42.824 Y24.226
X42.959 Y23.992
X43.139 Y23.792
X43.357 Y23.634
X43.603 Y23.524
X43.867 Y23.468
X44.137 Y23.468
X44.400 Y23.524
X44.646 Y23.634
X44.864 Y23.792
X45.045 Y23.992
X45.180 Y24.226
X45.263 Y24.482
X45.291 Y24.750
X45.263 Y25.018
X45.180 Y25.274
X45.045 Y25.508
X44.864 Y25.708
X44.646 Y25.867
X44.400 Y25.976
X44.137 Y26.032
X43.867 Y26.032
X43.603 Y25.976
X43.357 Y25.867
X43.139 Y25.708
X42.959 Y25.508
X42.824 Y25.274
X42.752 Y25.052
X42.680 Y25.274
X42.545 Y25.508
X42.364 Y25.708
X42.146 Y25.867
X41.900 Y25.976
X41.637 Y26.032
X41.367 Y26.032
X41.122 Y25.980
X38.708 Y28.394
X38.614 Y28.463
X38.498 Y28.514
X38.375 Y28.540
X22.702 Y28.540
X21.783 Y29.459
X21.783 Y35.578
X21.772 Y35.686
X21.733 Y35.806
X21.670 Y35.915
X21.604 Y35.988
X19.190 Y38.402
X19.096 Y38.470
X18.980 Y38.522
X18.857 Y38.548
X4.609 Y38.548
G0 Z3.000
G0  X4.922 Y37.348
G0  Z3.000
G01 F400 Z0
G01 F400 Z-0.100
G01F400X5.462 Y37.348
X5.450 Y37.342
X4.854 Y36.909
X4.361 Y36.362
X3.992 Y35.724
X3.846 Y35.272
X3.846 Y36.271
X4.922 Y37.348
G0 Z3.000
G0  X49.608 Y33.589
G0  Z3.000
G01 F400 Z0
G01 F400 Z-0.100
G01F400X49.230 Y33.509
X48.877 Y33.352
X48.564 Y33.124
X48.306 Y32.837
X48.112 Y32.502
X47.993 Y32.135
X47.952 Y31.750
X47.993 Y31.366
X48.112 Y30.998
X48.306 Y30.663
X48.564 Y30.376
X48.877 Y30.148
X49.230 Y29.991
X49.608 Y29.911
X49.995 Y29.911
X50.373 Y29.991
X50.727 Y30.148
X51.039 Y30.376
X51.298 Y30.663
X51.491 Y30.998
X51.611 Y31.366
X51.651 Y31.750
X51.611 Y32.135
X51.491 Y32.502
X51.298 Y32.837
X51.039 Y33.124
X50.727 Y33.352
X50.373 Y33.509
X49.995 Y33.589
X49.608 Y33.589
G0 Z3.000
G0  X58.409 Y33.589
G0  Z3.000
G01 F400 Z0
G01 F400 Z-0.100
G01F400X58.030 Y33.509
X57.677 Y33.352
X57.364 Y33.124
X57.106 Y32.837
X56.912 Y32.502
X56.793 Y32.135
X56.752 Y31.750
X56.793 Y31.366
X56.912 Y30.998
X57.106 Y30.663
X57.364 Y30.376
X57.677 Y30.148
X58.030 Y29.991
X58.409 Y29.911
X58.795 Y29.911
X59.173 Y29.991
X59.527 Y30.148
X59.839 Y30.376
X60.098 Y30.663
X60.291 Y30.998
X60.411 Y31.366
X60.451 Y31.750
X60.411 Y32.135
X60.291 Y32.502
X60.098 Y32.837
X59.839 Y33.124
X59.527 Y33.352
X59.173 Y33.509
X58.795 Y33.589
X58.409 Y33.589
G0 Z3.000
G0  X71.109 Y33.589
G0  Z3.000
G01 F400 Z0
G01 F400 Z-0.100
G01F400X70.730 Y33.509
X70.377 Y33.352
X70.064 Y33.124
X69.806 Y32.837
X69.612 Y32.502
X69.493 Y32.135
X69.452 Y31.750
X69.493 Y31.366
X69.612 Y30.998
X69.806 Y30.663
X70.064 Y30.376
X70.377 Y30.148
X70.730 Y29.991
X71.109 Y29.911
X71.495 Y29.911
X71.873 Y29.991
X72.227 Y30.148
X72.539 Y30.376
X72.798 Y30.663
X72.991 Y30.998
X73.111 Y31.366
X73.151 Y31.750
X73.111 Y32.135
X72.991 Y32.502
X72.798 Y32.837
X72.539 Y33.124
X72.227 Y33.352
X71.873 Y33.509
X71.495 Y33.589
X71.109 Y33.589
G0 Z3.000
G0  X62.309 Y33.589
G0  Z3.000
G01 F400 Z0
G01 F400 Z-0.100
G01F400X61.930 Y33.509
X61.577 Y33.352
X61.264 Y33.124
X61.006 Y32.837
X60.812 Y32.502
X60.693 Y32.135
X60.652 Y31.750
X60.693 Y31.366
X60.812 Y30.998
X61.006 Y30.663
X61.264 Y30.376
X61.577 Y30.148
X61.930 Y29.991
X62.309 Y29.911
X62.695 Y29.911
X63.073 Y29.991
X63.427 Y30.148
X63.739 Y30.376
X63.998 Y30.663
X64.191 Y30.998
X64.311 Y31.366
X64.351 Y31.750
X64.311 Y32.135
X64.191 Y32.502
X63.998 Y32.837
X63.739 Y33.124
X63.427 Y33.352
X63.073 Y33.509
X62.695 Y33.589
X62.309 Y33.589
G0 Z3.000
G0  X36.909 Y33.589
G0  Z3.000
G01 F400 Z0
G01 F400 Z-0.100
G01F400X36.530 Y33.509
X36.177 Y33.352
X35.864 Y33.124
X35.606 Y32.837
X35.412 Y32.502
X35.293 Y32.135
X35.252 Y31.750
X35.293 Y31.366
X35.412 Y30.998
X35.606 Y30.663
X35.864 Y30.376
X36.177 Y30.148
X36.530 Y29.991
X36.909 Y29.911
X37.295 Y29.911
X37.673 Y29.991
X38.026 Y30.148
X38.339 Y30.376
X38.598 Y30.663
X38.791 Y30.998
X38.911 Y31.366
X38.951 Y31.750
X38.911 Y32.135
X38.791 Y32.502
X38.598 Y32.837
X38.339 Y33.124
X38.026 Y33.352
X37.673 Y33.509
X37.295 Y33.589
X36.909 Y33.589
G0 Z3.000
G0  X45.709 Y33.589
G0  Z3.000
G01 F400 Z0
G01 F400 Z-0.100
G01F400X45.330 Y33.509
X44.977 Y33.352
X44.664 Y33.124
X44.406 Y32.837
X44.212 Y32.502
X44.093 Y32.135
X44.052 Y31.750
X44.093 Y31.366
X44.212 Y30.998
X44.406 Y30.663
X44.664 Y30.376
X44.977 Y30.148
X45.330 Y29.991
X45.709 Y29.911
X46.095 Y29.911
X46.473 Y29.991
X46.827 Y30.148
X47.139 Y30.376
X47.398 Y30.663
X47.591 Y30.998
X47.711 Y31.366
X47.751 Y31.750
X47.711 Y32.135
X47.591 Y32.502
X47.398 Y32.837
X47.139 Y33.124
X46.827 Y33.352
X46.473 Y33.509
X46.095 Y33.589
X45.709 Y33.589
G0 Z3.000
G0  X24.209 Y33.589
G0  Z3.000
G01 F400 Z0
G01 F400 Z-0.100
G01F400X23.830 Y33.509
X23.477 Y33.352
X23.164 Y33.124
X22.906 Y32.837
X22.712 Y32.502
X22.593 Y32.135
X22.552 Y31.750
X22.593 Y31.366
X22.712 Y30.998
X22.906 Y30.663
X23.164 Y30.376
X23.477 Y30.148
X23.830 Y29.991
X24.209 Y29.911
X24.595 Y29.911
X24.973 Y29.991
X25.327 Y30.148
X25.639 Y30.376
X25.898 Y30.663
X26.091 Y30.998
X26.211 Y31.366
X26.251 Y31.750
X26.211 Y32.135
X26.091 Y32.502
X25.898 Y32.837
X25.639 Y33.124
X25.327 Y33.352
X24.973 Y33.509
X24.595 Y33.589
X24.209 Y33.589
G0 Z3.000
G0  X33.009 Y33.589
G0  Z3.000
G01 F400 Z0
G01 F400 Z-0.100
G01F400X32.630 Y33.509
X32.277 Y33.352
X31.964 Y33.124
X31.706 Y32.837
X31.512 Y32.502
X31.393 Y32.135
X31.352 Y31.750
X31.393 Y31.366
X31.512 Y30.998
X31.706 Y30.663
X31.964 Y30.376
X32.277 Y30.148
X32.630 Y29.991
X33.009 Y29.911
X33.395 Y29.911
X33.773 Y29.991
X34.127 Y30.148
X34.439 Y30.376
X34.698 Y30.663
X34.891 Y30.998
X35.011 Y31.366
X35.051 Y31.750
X35.011 Y32.135
X34.891 Y32.502
X34.698 Y32.837
X34.439 Y33.124
X34.127 Y33.352
X33.773 Y33.509
X33.395 Y33.589
X33.009 Y33.589
G0 Z3.000
G0  X20.580 Y32.523
G0  Z3.000
G01 F400 Z0
G01 F400 Z-0.100
G01F400X20.580 Y29.392
X19.243 Y30.729
X19.243 Y31.190
X19.894 Y31.358
X20.580 Y32.523
G0 Z3.000
G0  X10.844 Y28.445
G0  Z3.000
G01 F400 Z0
G01 F400 Z-0.100
G01F400X10.496 Y28.371
X10.171 Y28.227
X9.883 Y28.017
X9.645 Y27.753
X9.467 Y27.445
X9.357 Y27.107
X9.322 Y26.771
X9.322 Y24.029
X9.357 Y23.694
X9.467 Y23.355
X9.645 Y23.047
X9.883 Y22.783
X10.171 Y22.574
X10.496 Y22.429
X10.844 Y22.355
X11.200 Y22.355
X11.548 Y22.429
X11.873 Y22.574
X12.161 Y22.783
X12.399 Y23.047
X12.577 Y23.355
X12.687 Y23.694
X12.722 Y24.029
X12.722 Y26.771
X12.687 Y27.107
X12.577 Y27.445
X12.399 Y27.753
X12.161 Y28.017
X11.873 Y28.227
X11.548 Y28.371
X11.200 Y28.445
X10.844 Y28.445
G0 Z3.000
G0  X15.543 Y28.445
G0  Z3.000
G01 F400 Z0
G01 F400 Z-0.100
G01F400X15.195 Y28.371
X14.870 Y28.227
X14.582 Y28.017
X14.344 Y27.753
X14.166 Y27.445
X14.056 Y27.107
X14.021 Y26.771
X14.021 Y24.029
X14.056 Y23.694
X14.166 Y23.355
X14.344 Y23.047
X14.582 Y22.783
X14.870 Y22.574
X15.195 Y22.429
X15.543 Y22.355
X15.899 Y22.355
X16.247 Y22.429
X16.572 Y22.574
X16.860 Y22.783
X17.098 Y23.047
X17.276 Y23.355
X17.386 Y23.694
X17.421 Y24.029
X17.421 Y26.771
X17.386 Y27.107
X17.276 Y27.445
X17.098 Y27.753
X16.860 Y28.017
X16.572 Y28.227
X16.247 Y28.371
X15.899 Y28.445
X15.543 Y28.445
G0 Z3.000
G0  X30.005 Y25.197
G0  Z3.000
G01 F400 Z0
G01 F400 Z-0.100
G01F400X30.076 Y25.126
X30.052 Y25.052
X30.005 Y25.197
G0 Z3.000
G0  X40.205 Y25.197
G0  Z3.000
G01 F400 Z0
G01 F400 Z-0.100
G01F400X40.276 Y25.126
X40.252 Y25.052
X40.205 Y25.197
G0 Z3.000
G0  X36.308 Y20.867
G0  Z3.000
G01 F400 Z0
G01 F400 Z-0.100
G01F400X36.086 Y20.819
X35.879 Y20.727
X35.695 Y20.594
X35.543 Y20.425
X35.430 Y20.228
X35.360 Y20.012
X35.338 Y19.805
X35.338 Y18.295
X35.360 Y18.088
X35.430 Y17.872
X35.543 Y17.675
X35.695 Y17.506
X35.879 Y17.373
X36.086 Y17.281
X36.308 Y17.233
X36.535 Y17.233
X36.757 Y17.281
X36.965 Y17.373
X37.148 Y17.506
X37.300 Y17.675
X37.414 Y17.872
X37.484 Y18.088
X37.506 Y18.295
X37.506 Y19.805
X37.484 Y20.012
X37.414 Y20.228
X37.300 Y20.425
X37.148 Y20.594
X36.965 Y20.727
X36.757 Y20.819
X36.535 Y20.867
X36.308 Y20.867
G0 Z3.000
G0  X31.228 Y20.867
G0  Z3.000
G01 F400 Z0
G01 F400 Z-0.100
G01F400X31.006 Y20.819
X30.799 Y20.727
X30.615 Y20.594
X30.463 Y20.425
X30.350 Y20.228
X30.280 Y20.012
X30.258 Y19.805
X30.258 Y18.295
X30.280 Y18.088
X30.350 Y17.872
X30.463 Y17.675
X30.615 Y17.506
X30.799 Y17.373
X31.006 Y17.281
X31.228 Y17.233
X31.455 Y17.233
X31.677 Y17.281
X31.885 Y17.373
X32.069 Y17.506
X32.220 Y17.675
X32.334 Y17.872
X32.404 Y18.088
X32.426 Y18.295
X32.426 Y19.805
X32.404 Y20.012
X32.334 Y20.228
X32.220 Y20.425
X32.069 Y20.594
X31.885 Y20.727
X31.677 Y20.819
X31.455 Y20.867
X31.228 Y20.867
G0 Z3.000
G0  X33.768 Y20.867
G0  Z3.000
G01 F400 Z0
G01 F400 Z-0.100
G01F400X33.546 Y20.819
X33.339 Y20.727
X33.155 Y20.594
X33.003 Y20.425
X32.890 Y20.228
X32.820 Y20.012
X32.798 Y19.805
X32.798 Y18.295
X32.820 Y18.088
X32.890 Y17.872
X33.003 Y17.675
X33.155 Y17.506
X33.339 Y17.373
X33.546 Y17.281
X33.768 Y17.233
X33.995 Y17.233
X34.217 Y17.281
X34.425 Y17.373
X34.608 Y17.506
X34.760 Y17.675
X34.874 Y17.872
X34.944 Y18.088
X34.966 Y18.295
X34.966 Y19.805
X34.944 Y20.012
X34.874 Y20.228
X34.760 Y20.425
X34.608 Y20.594
X34.425 Y20.727
X34.217 Y20.819
X33.995 Y20.867
X33.768 Y20.867
G0 Z3.000
G0  X28.688 Y20.867
G0  Z3.000
G01 F400 Z0
G01 F400 Z-0.100
G01F400X28.466 Y20.819
X28.259 Y20.727
X28.075 Y20.594
X27.923 Y20.425
X27.810 Y20.228
X27.739 Y20.012
X27.718 Y19.805
X27.718 Y18.295
X27.739 Y18.088
X27.810 Y17.872
X27.923 Y17.675
X28.075 Y17.506
X28.259 Y17.373
X28.466 Y17.281
X28.688 Y17.233
X28.915 Y17.233
X29.137 Y17.281
X29.345 Y17.373
X29.529 Y17.506
X29.680 Y17.675
X29.794 Y17.872
X29.864 Y18.088
X29.886 Y18.295
X29.886 Y19.805
X29.864 Y20.012
X29.794 Y20.228
X29.680 Y20.425
X29.529 Y20.594
X29.345 Y20.727
X29.137 Y20.819
X28.915 Y20.867
X28.688 Y20.867
G0 Z3.000
G0  X23.608 Y20.867
G0  Z3.000
G01 F400 Z0
G01 F400 Z-0.100
G01F400X23.386 Y20.819
X23.179 Y20.727
X22.995 Y20.594
X22.843 Y20.425
X22.730 Y20.228
X22.660 Y20.012
X22.638 Y19.805
X22.638 Y18.295
X22.660 Y18.088
X22.730 Y17.872
X22.843 Y17.675
X22.995 Y17.506
X23.179 Y17.373
X23.386 Y17.281
X23.608 Y17.233
X23.835 Y17.233
X24.057 Y17.281
X24.265 Y17.373
X24.449 Y17.506
X24.600 Y17.675
X24.714 Y17.872
X24.784 Y18.088
X24.806 Y18.295
X24.806 Y19.805
X24.784 Y20.012
X24.714 Y20.228
X24.600 Y20.425
X24.449 Y20.594
X24.265 Y20.727
X24.057 Y20.819
X23.835 Y20.867
X23.608 Y20.867
G0 Z3.000
G0  X10.844 Y19.555
G0  Z3.000
G01 F400 Z0
G01 F400 Z-0.100
G01F400X10.496 Y19.481
X10.171 Y19.337
X9.883 Y19.127
X9.645 Y18.863
X9.467 Y18.555
X9.357 Y18.216
X9.322 Y17.881
X9.322 Y15.139
X9.357 Y14.804
X9.467 Y14.465
X9.645 Y14.157
X9.883 Y13.893
X10.171 Y13.684
X10.496 Y13.539
X10.844 Y13.465
X11.200 Y13.465
X11.548 Y13.539
X11.873 Y13.684
X12.161 Y13.893
X12.399 Y14.157
X12.577 Y14.465
X12.687 Y14.804
X12.722 Y15.139
X12.722 Y17.881
X12.687 Y18.216
X12.577 Y18.555
X12.399 Y18.863
X12.161 Y19.127
X11.873 Y19.337
X11.548 Y19.481
X11.200 Y19.555
X10.844 Y19.555
G0 Z3.000
G0  X33.768 Y13.247
G0  Z3.000
G01 F400 Z0
G01 F400 Z-0.100
G01F400X33.546 Y13.199
X33.339 Y13.107
X33.155 Y12.974
X33.003 Y12.805
X32.890 Y12.608
X32.820 Y12.392
X32.798 Y12.185
X32.798 Y10.675
X32.820 Y10.468
X32.890 Y10.252
X33.003 Y10.055
X33.155 Y9.886
X33.339 Y9.753
X33.546 Y9.661
X33.768 Y9.613
X33.995 Y9.613
X34.217 Y9.661
X34.425 Y9.753
X34.608 Y9.886
X34.760 Y10.055
X34.874 Y10.252
X34.944 Y10.468
X34.966 Y10.675
X34.966 Y12.185
X34.944 Y12.392
X34.874 Y12.608
X34.760 Y12.805
X34.608 Y12.974
X34.425 Y13.107
X34.217 Y13.199
X33.995 Y13.247
X33.768 Y13.247
G0 Z3.000
G0  X64.240 Y11.316
G0  Z3.000
G01 F400 Z0
G01 F400 Z-0.100
G01F400X64.003 Y11.265
X63.781 Y11.167
X63.584 Y11.024
X63.422 Y10.843
X63.300 Y10.633
X63.225 Y10.402
X63.200 Y10.160
X63.225 Y9.918
X63.300 Y9.687
X63.422 Y9.477
X63.584 Y9.296
X63.781 Y9.154
X64.003 Y9.055
X64.240 Y9.004
X64.483 Y9.004
X64.721 Y9.055
X64.943 Y9.154
X65.139 Y9.296
X65.302 Y9.477
X65.424 Y9.687
X65.499 Y9.918
X65.524 Y10.160
X65.499 Y10.402
X65.424 Y10.633
X65.302 Y10.843
X65.139 Y11.024
X64.943 Y11.167
X64.721 Y11.265
X64.483 Y11.316
X64.240 Y11.316
G0 Z3.000
G0  X43.677 Y10.830
G0  Z3.000
G01 F400 Z0
G01 F400 Z-0.100
G01F400X45.617 Y10.830
X45.645 Y10.724
X46.419 Y10.268
X47.288 Y10.493
X47.487 Y10.830
X49.427 Y10.830
X49.455 Y10.724
X49.790 Y10.526
X49.790 Y6.599
X48.872 Y5.680
X47.546 Y5.680
X47.519 Y5.786
X46.745 Y6.242
X45.876 Y6.017
X45.420 Y5.243
X45.635 Y4.410
X42.352 Y4.410
X42.380 Y4.442
X42.494 Y4.638
X42.564 Y4.854
X42.588 Y5.080
X42.564 Y5.306
X42.494 Y5.522
X42.380 Y5.718
X42.229 Y5.887
X42.045 Y6.021
X41.837 Y6.113
X41.615 Y6.160
X41.388 Y6.160
X41.166 Y6.113
X40.959 Y6.021
X40.775 Y5.887
X40.623 Y5.718
X40.557 Y5.604
X39.228 Y5.604
X39.456 Y5.652
X39.683 Y5.753
X39.884 Y5.899
X40.050 Y6.084
X40.174 Y6.299
X40.250 Y6.535
X40.275 Y6.764
X40.275 Y7.426
X40.867 Y7.651
X40.957 Y7.691
X41.060 Y7.765
X41.134 Y7.848
X42.872 Y10.336
X43.478 Y10.493
X43.677 Y10.830
G0 Z3.000
G0  X10.844 Y10.665
G0  Z3.000
G01 F400 Z0
G01 F400 Z-0.100
G01F400X10.496 Y10.591
X10.171 Y10.447
X9.883 Y10.237
X9.645 Y9.973
X9.467 Y9.665
X9.357 Y9.327
X9.322 Y8.991
X9.322 Y6.249
X9.357 Y5.914
X9.467 Y5.575
X9.645 Y5.267
X9.883 Y5.003
X10.171 Y4.794
X10.496 Y4.649
X10.844 Y4.575
X11.200 Y4.575
X11.548 Y4.649
X11.873 Y4.794
X12.161 Y5.003
X12.399 Y5.267
X12.577 Y5.575
X12.687 Y5.914
X12.722 Y6.249
X12.722 Y8.991
X12.687 Y9.327
X12.577 Y9.665
X12.399 Y9.973
X12.161 Y10.237
X11.873 Y10.447
X11.548 Y10.591
X11.200 Y10.665
X10.844 Y10.665
G0 Z3.000
G0  X15.543 Y10.665
G0  Z3.000
G01 F400 Z0
G01 F400 Z-0.100
G01F400X15.195 Y10.591
X14.870 Y10.447
X14.582 Y10.237
X14.344 Y9.973
X14.166 Y9.665
X14.056 Y9.327
X14.021 Y8.991
X14.021 Y6.249
X14.056 Y5.914
X14.166 Y5.575
X14.344 Y5.267
X14.582 Y5.003
X14.870 Y4.794
X15.195 Y4.649
X15.543 Y4.575
X15.899 Y4.575
X16.247 Y4.649
X16.572 Y4.794
X16.860 Y5.003
X17.098 Y5.267
X17.276 Y5.575
X17.386 Y5.914
X17.421 Y6.249
X17.421 Y8.991
X17.386 Y9.327
X17.276 Y9.665
X17.098 Y9.973
X16.860 Y10.237
X16.572 Y10.447
X16.247 Y10.591
X15.899 Y10.665
X15.543 Y10.665
G0 Z3.000
G0  X6.145 Y10.665
G0  Z3.000
G01 F400 Z0
G01 F400 Z-0.100
G01F400X5.797 Y10.591
X5.472 Y10.447
X5.184 Y10.237
X4.946 Y9.973
X4.768 Y9.665
X4.658 Y9.327
X4.623 Y8.991
X4.623 Y6.249
X4.658 Y5.914
X4.768 Y5.575
X4.946 Y5.267
X5.184 Y5.003
X5.472 Y4.794
X5.797 Y4.649
X6.145 Y4.575
X6.501 Y4.575
X6.849 Y4.649
X7.174 Y4.794
X7.462 Y5.003
X7.700 Y5.267
X7.878 Y5.575
X7.988 Y5.914
X8.023 Y6.249
X8.023 Y8.991
X7.988 Y9.327
X7.878 Y9.665
X7.700 Y9.973
X7.462 Y10.237
X7.174 Y10.447
X6.849 Y10.591
X6.501 Y10.665
X6.145 Y10.665
G0 Z3.000
G0  X50.642 Y5.750
G0  Z3.000
G01 F400 Z0
G01 F400 Z-0.100
G01F400X52.335 Y5.750
X53.236 Y4.850
X53.045 Y4.890
X52.818 Y4.890
X52.596 Y4.843
X52.389 Y4.751
X52.205 Y4.617
X52.053 Y4.448
X52.031 Y4.410
X47.446 Y4.410
X47.487 Y4.480
X49.185 Y4.480
X49.308 Y4.506
X49.424 Y4.558
X49.518 Y4.626
X50.642 Y5.750
G0 Z3.000
M05
(  )
T608 M06
( Drilling )
M03 S10000
G00 X21.182 Y19.050
G0  Z3.000
G01 F320.0 Z-1.780
G00 Z3.000
G00 X28.802 Y11.430
G0  Z3.000
G01 F320.0 Z-1.780
G00 Z3.000
G00 X58.012 Y3.810
G0  Z3.000
G01 F320.0 Z-1.780
G00 Z3.000
G00 X28.802 Y19.050
G0  Z3.000
G01 F320.0 Z-1.780
G00 Z3.000
G00 X54.202 Y16.510
G0  Z3.000
G01 F320.0 Z-1.780
G00 Z3.000
G00 X54.202 Y6.350
G0  Z3.000
G01 F320.0 Z-1.780
G00 Z3.000
G00 X26.262 Y11.430
G0  Z3.000
G01 F320.0 Z-1.780
G00 Z3.000
G00 X31.342 Y11.430
G0  Z3.000
G01 F320.0 Z-1.780
G00 Z3.000
G00 X46.582 Y21.590
G0  Z3.000
G01 F320.0 Z-1.780
G00 Z3.000
G00 X46.582 Y11.430
G0  Z3.000
G01 F320.0 Z-1.780
G00 Z3.000
G00 X50.392 Y16.510
G0  Z3.000
G01 F320.0 Z-1.780
G00 Z3.000
G00 X50.392 Y11.430
G0  Z3.000
G01 F320.0 Z-1.780
G00 Z3.000
G00 X42.772 Y11.430
G0  Z3.000
G01 F320.0 Z-1.780
G00 Z3.000
G00 X42.772 Y21.590
G0  Z3.000
G01 F320.0 Z-1.780
G00 Z3.000
G00 X30.072 Y7.620
G0  Z3.000
G01 F320.0 Z-1.780
G00 Z3.000
G00 X24.992 Y7.620
G0  Z3.000
G01 F320.0 Z-1.780
G00 Z3.000
G00 X33.882 Y11.430
G0  Z3.000
G01 F320.0 Z-1.780
G00 Z3.000
G00 X23.722 Y19.050
G0  Z3.000
G01 F320.0 Z-1.780
G00 Z3.000
G00 X26.262 Y19.050
G0  Z3.000
G01 F320.0 Z-1.780
G00 Z3.000
G00 X38.962 Y19.050
G0  Z3.000
G01 F320.0 Z-1.780
G00 Z3.000
G00 X21.182 Y11.430
G0  Z3.000
G01 F320.0 Z-1.780
G00 Z3.000
G00 X23.722 Y11.430
G0  Z3.000
G01 F320.0 Z-1.780
G00 Z3.000
G00 X36.422 Y11.430
G0  Z3.000
G01 F320.0 Z-1.780
G00 Z3.000
G00 X38.962 Y11.430
G0  Z3.000
G01 F320.0 Z-1.780
G00 Z3.000
G00 X59.282 Y17.780
G0  Z3.000
G01 F320.0 Z-1.780
G00 Z3.000
G00 X61.822 Y17.780
G0  Z3.000
G01 F320.0 Z-1.780
G00 Z3.000
G00 X59.282 Y10.160
G0  Z3.000
G01 F320.0 Z-1.780
G00 Z3.000
G00 X61.822 Y10.160
G0  Z3.000
G01 F320.0 Z-1.780
G00 Z3.000
G00 X41.502 Y5.080
G0  Z3.000
G01 F320.0 Z-1.780
G00 Z3.000
G00 X46.582 Y5.080
G0  Z3.000
G01 F320.0 Z-1.780
G00 Z3.000
G00 X66.902 Y17.780
G0  Z3.000
G01 F320.0 Z-1.780
G00 Z3.000
G00 X64.362 Y17.780
G0  Z3.000
G01 F320.0 Z-1.780
G00 Z3.000
G00 X64.362 Y10.160
G0  Z3.000
G01 F320.0 Z-1.780
G00 Z3.000
G00 X36.422 Y19.050
G0  Z3.000
G01 F320.0 Z-1.780
G00 Z3.000
G00 X33.882 Y19.050
G0  Z3.000
G01 F320.0 Z-1.780
G00 Z3.000
G00 X31.342 Y19.050
G0  Z3.000
G01 F320.0 Z-1.780
G00 Z3.000
G00 X66.902 Y10.160
G0  Z3.000
G01 F320.0 Z-1.780
G00 Z3.000
G00 X52.932 Y3.810
G0  Z3.000
G01 F320.0 Z-1.780
G00 Z3.000
G00 X56.702 Y24.750
G0  Z3.000
G01 F320.0 Z-1.780
G00 Z3.000
G00 X26.302 Y24.750
G0  Z3.000
G01 F320.0 Z-1.780
G00 Z3.000
G00 X28.802 Y24.750
G0  Z3.000
G01 F320.0 Z-1.780
G00 Z3.000
G00 X31.302 Y24.750
G0  Z3.000
G01 F320.0 Z-1.780
G00 Z3.000
G00 X39.002 Y24.750
G0  Z3.000
G01 F320.0 Z-1.780
G00 Z3.000
G00 X41.502 Y24.750
G0  Z3.000
G01 F320.0 Z-1.780
G00 Z3.000
G00 X44.002 Y24.750
G0  Z3.000
G01 F320.0 Z-1.780
G00 Z3.000
G00 X51.702 Y24.750
G0  Z3.000
G01 F320.0 Z-1.780
G00 Z3.000
G00 X54.202 Y24.750
G0  Z3.000
G01 F320.0 Z-1.780
G00 Z3.000
G00 X69.402 Y24.750
G0  Z3.000
G01 F320.0 Z-1.780
G00 Z3.000
G00 X66.902 Y24.750
G0  Z3.000
G01 F320.0 Z-1.780
G00 Z3.000
G00 X64.402 Y24.750
G0  Z3.000
G01 F320.0 Z-1.780
G00 Z3.000
G00 X39.089 Y7.620
G0  Z3.000
G01 F320.0 Z-1.780
G00 Z3.000
G00 X36.295 Y7.620
G0  Z3.000
G01 F320.0 Z-1.780
G00 Z3.000
G00 X18.642 Y33.020
G0  Z3.000
G01 F320.0 Z-1.780
G00 Z3.000
G00 X13.562 Y33.020
G0  Z3.000
G01 F320.0 Z-1.780
G00 Z3.000
G00 X15.721 Y7.620
G0  Z3.000
G01 F320.0 Z-1.780
G00 Z3.000
G00 X11.022 Y7.620
G0  Z3.000
G01 F320.0 Z-1.780
G00 Z3.000
G00 X6.323 Y7.620
G0  Z3.000
G01 F320.0 Z-1.780
G00 Z3.000
G00 X15.721 Y16.510
G0  Z3.000
G01 F320.0 Z-1.780
G00 Z3.000
G00 X11.022 Y16.510
G0  Z3.000
G01 F320.0 Z-1.780
G00 Z3.000
G00 X6.323 Y16.510
G0  Z3.000
G01 F320.0 Z-1.780
G00 Z3.000
G00 X6.323 Y25.400
G0  Z3.000
G01 F320.0 Z-1.780
G00 Z3.000
G00 X11.022 Y25.400
G0  Z3.000
G01 F320.0 Z-1.780
G00 Z3.000
G00 X15.721 Y25.400
G0  Z3.000
G01 F320.0 Z-1.780
G00 Z3.000
G00 X24.402 Y31.750
G0  Z3.000
G01 F320.0 Z-1.780
G00 Z3.000
G00 X33.202 Y31.750
G0  Z3.000
G01 F320.0 Z-1.780
G00 Z3.000
G00 X37.102 Y31.750
G0  Z3.000
G01 F320.0 Z-1.780
G00 Z3.000
G00 X45.902 Y31.750
G0  Z3.000
G01 F320.0 Z-1.780
G00 Z3.000
G00 X62.502 Y31.750
G0  Z3.000
G01 F320.0 Z-1.780
G00 Z3.000
G00 X49.802 Y31.750
G0  Z3.000
G01 F320.0 Z-1.780
G00 Z3.000
G00 X58.602 Y31.750
G0  Z3.000
G01 F320.0 Z-1.780
G00 Z3.000
G00 X71.302 Y31.750
G0  Z3.000
G01 F320.0 Z-1.780
G00 Z3.000
G00 X69.442 Y5.080
G0  Z3.000
G01 F320.0 Z-1.780
G00 Z3.000
G00 X7.212 Y34.290
G0  Z3.000
G01 F320.0 Z-1.780
G00 Z3.000
M05
(  )
T112 M06
( Routing )
M03 S10000
G0  X-0.793 Y40.794
G0  Z3.000
G01 F200 Z0
G01 F200 Z-0.790
G01F200X-0.793 Y-0.793
X75.794 Y-0.793
X75.794 Y40.794
X-0.793 Y40.794
G0 Z3.000
M03 S10000
G0  X-0.793 Y40.794
G0  Z3.000
G01 F200 Z0
G01 F200 Z-1.580
G01F200X-0.793 Y-0.793
X75.794 Y-0.793
X75.794 Y40.794
X-0.793 Y40.794
G0 Z3.000
G00 Z3.000
M05
M30
%